<?xml version="1.0" encoding="UTF-8"?>
<map version="1.10" tiledversion="1.11.2" orientation="isometric" renderorder="right-down" width="21" height="21" tilewidth="63" tileheight="32" infinite="0" nextlayerid="10" nextobjectid="117">
 <tileset firstgid="1" name="tile3" tilewidth="64" tileheight="32" tilecount="1" columns="1">
  <image source="tiles/tile3.png" trans="ff00ff" width="64" height="32"/>
 </tileset>
 <tileset firstgid="2" name="dirt_W" tilewidth="64" tileheight="32" tilecount="1" columns="1">
  <image source="tiles/dirt_W.png" trans="ff00ff" width="64" height="32"/>
 </tileset>
 <tileset firstgid="3" name="tire1" tilewidth="64" tileheight="32" tilecount="1" columns="1">
  <image source="tiles/city_game_tileset/city_game_tileset/tire1.png" trans="ff00ff" width="64" height="32"/>
  <tile id="0">
   <properties>
    <property name="walkable" type="bool" value="false"/>
   </properties>
  </tile>
 </tileset>
 <tileset firstgid="4" name="pixil-frame-6" tilewidth="64" tileheight="64" tilecount="1" columns="1">
  <image source="tiles/city_game_tileset/city_game_tileset/pixil-frame-6.png" trans="ff00ff" width="64" height="64"/>
 </tileset>
 <tileset firstgid="5" name="grass" tilewidth="64" tileheight="64" tilecount="1" columns="1">
  <properties>
   <property name="walkable" type="bool" value="true"/>
  </properties>
  <image source="tiles/grass.png" trans="ff00ff" width="64" height="64"/>
 </tileset>
 <tileset firstgid="6" name="grass - Copy" tilewidth="82" tileheight="73" tilecount="0" columns="0">
  <image source="tiles/grass - Copy.png" trans="ff00ff" width="80" height="63"/>
 </tileset>
 <layer id="1" name="ground_layer" width="21" height="21" opacity="0.85">
  <data encoding="csv">
0,0,0,0,0,0,0,0,0,0,0,0,0,0,0,0,0,0,0,0,0,
0,4,4,4,4,4,4,4,0,0,0,4,4,4,4,0,0,0,0,4,0,
0,4,0,0,0,0,0,4,0,4,0,4,0,0,4,0,4,4,4,4,0,
0,4,0,4,4,4,0,4,0,4,0,4,0,4,4,0,4,0,0,4,0,
0,4,0,4,0,4,0,4,0,4,0,4,0,4,0,0,4,0,4,4,0,
0,4,0,4,0,4,0,4,0,4,0,4,0,4,0,4,4,0,4,0,0,
0,4,0,4,0,4,0,4,0,4,0,4,0,4,0,4,0,0,4,0,0,
0,4,0,4,0,4,0,4,0,4,4,4,0,4,0,4,0,4,4,4,0,
0,4,0,4,0,4,0,0,0,0,0,4,0,4,0,4,0,4,0,0,0,
0,4,4,4,0,4,4,4,4,4,0,4,0,4,0,4,4,4,0,4,0,
0,0,0,4,0,0,0,0,0,4,0,4,0,4,0,0,0,0,0,4,0,
0,4,0,4,4,4,4,4,0,4,0,4,4,4,4,4,4,4,0,4,0,
0,4,0,0,0,0,0,4,0,4,0,0,0,0,0,0,0,4,0,4,0,
0,4,4,4,4,4,0,4,0,4,4,4,4,4,4,4,0,4,0,4,0,
0,4,0,0,0,4,0,4,0,0,0,0,0,0,0,4,0,4,0,4,0,
0,4,4,4,0,4,0,4,4,4,4,4,4,4,0,4,0,4,4,4,0,
0,0,4,4,0,4,0,0,0,0,0,0,0,4,0,4,0,0,0,0,0,
0,4,4,4,4,4,4,4,4,4,4,4,0,4,4,4,4,4,4,4,0,
0,4,0,0,0,0,0,0,0,0,0,4,0,0,0,0,0,0,0,4,0,
0,4,4,4,4,4,4,4,4,4,0,4,4,4,4,4,4,4,4,4,0,
4,4,0,0,0,0,0,0,0,0,0,0,0,0,0,0,0,0,0,0,0
</data>
 </layer>
 <layer id="3" name="terrain_layer" width="21" height="21">
  <data encoding="csv">
5,5,5,5,5,5,5,5,5,5,5,5,5,5,5,5,5,5,5,5,0,
5,0,0,0,0,0,0,0,5,5,5,0,0,0,0,5,5,5,5,0,5,
5,0,5,5,5,5,5,0,5,0,5,0,5,5,0,5,0,0,0,0,5,
5,0,5,0,0,0,5,0,5,0,5,0,5,0,0,5,0,5,5,0,5,
5,0,5,0,5,0,5,0,5,0,5,0,5,0,5,5,0,5,0,0,5,
5,0,5,0,5,0,5,0,5,0,5,0,5,0,5,0,0,5,0,5,5,
5,0,5,0,5,0,5,0,5,0,5,0,5,0,5,0,5,5,0,5,5,
5,0,5,0,5,0,5,0,5,0,0,0,5,0,5,0,5,0,0,0,5,
5,0,5,0,5,0,5,5,5,5,5,0,5,0,5,0,5,0,5,5,5,
5,0,0,0,5,0,0,0,0,0,5,0,5,0,5,0,0,0,5,0,5,
5,5,5,0,5,5,5,5,5,0,5,0,5,0,5,5,5,5,5,0,5,
5,0,5,0,0,0,0,0,5,0,5,0,0,0,0,0,0,0,5,0,5,
5,0,5,5,5,5,5,0,5,0,5,5,5,5,5,5,5,0,5,0,5,
5,0,0,0,0,0,5,0,5,0,0,0,0,0,0,0,5,0,5,0,5,
5,0,5,5,5,0,5,0,5,5,5,5,5,5,5,0,5,0,5,0,5,
5,0,0,0,5,0,5,0,0,0,0,0,0,0,5,0,5,0,0,0,5,
5,5,0,0,5,0,5,5,5,5,5,5,5,0,5,0,5,5,5,5,5,
5,0,0,0,0,0,0,0,0,0,0,0,5,0,0,0,0,0,0,0,5,
5,0,5,5,5,5,5,5,5,5,5,0,5,5,5,5,5,5,5,0,5,
5,0,0,0,0,0,0,0,0,0,5,0,0,0,0,0,0,0,0,0,5,
0,0,5,5,5,5,5,5,5,5,5,5,5,5,5,5,5,5,5,5,5
</data>
 </layer>
 <objectgroup id="4" name="object"/>
</map>
