<?xml version="1.0" encoding="UTF-8"?>
<map version="1.10" tiledversion="1.11.2" orientation="isometric" renderorder="left-up" width="30" height="30" tilewidth="64" tileheight="32" infinite="0" nextlayerid="6" nextobjectid="37">
 <tileset firstgid="1" name="tile1" tilewidth="64" tileheight="62" tilecount="1" columns="1">
  <image source="tiles/dungeon2/tile1.png" trans="ff00ff" width="64" height="62"/>
 </tileset>
 <tileset firstgid="2" name="barrier" tilewidth="30" tileheight="41" tilecount="1" columns="1">
  <tileoffset x="10" y="-10"/>
  <image source="tiles/dungeon2/barrier.png" trans="ff00ff" width="30" height="41"/>
 </tileset>
 <tileset firstgid="3" name="book" tilewidth="32" tileheight="20" tilecount="1" columns="1">
  <tileoffset x="15" y="-5"/>
  <image source="tiles/dungeon2/book.png" trans="ff00ff" width="32" height="20"/>
 </tileset>
 <tileset firstgid="4" name="bookshelf1" tilewidth="53" tileheight="99" tilecount="1" columns="1">
  <image source="tiles/dungeon2/bookshelf1.png" trans="ff00ff" width="53" height="99"/>
 </tileset>
 <tileset firstgid="5" name="branch2" tilewidth="64" tileheight="32" tilecount="1" columns="1">
  <image source="tiles/dungeon2/branch2.png" trans="ff00ff" width="64" height="32"/>
 </tileset>
 <tileset firstgid="6" name="campfire1" tilewidth="64" tileheight="64" tilecount="1" columns="1">
  <image source="tiles/dungeon2/campfire1.png" trans="ff00ff" width="64" height="64"/>
 </tileset>
 <tileset firstgid="7" name="casebook" tilewidth="84" tileheight="75" tilecount="1" columns="1">
  <tileoffset x="-25" y="10"/>
  <image source="tiles/dungeon2/casebook.png" trans="ff00ff" width="84" height="75"/>
 </tileset>
 <tileset firstgid="8" name="chest1" tilewidth="64" tileheight="56" tilecount="1" columns="1">
  <image source="tiles/dungeon2/chest1.png" trans="ff00ff" width="64" height="56"/>
 </tileset>
 <tileset firstgid="9" name="dresser1" tilewidth="39" tileheight="54" tilecount="1" columns="1">
  <image source="tiles/dungeon2/dresser1.png" trans="ff00ff" width="39" height="54"/>
 </tileset>
 <tileset firstgid="10" name="gate2" tilewidth="64" tileheight="82" tilecount="1" columns="1">
  <image source="tiles/dungeon2/gate2.png" trans="ff00ff" width="64" height="82"/>
 </tileset>
 <tileset firstgid="11" name="ghost1" tilewidth="43" tileheight="74" tilecount="1" columns="1">
  <tileoffset x="15" y="-5"/>
  <image source="tiles/dungeon2/ghost1.png" trans="ff00ff" width="43" height="74"/>
 </tileset>
 <tileset firstgid="12" name="grave2" tilewidth="64" tileheight="68" tilecount="1" columns="1">
  <image source="tiles/dungeon2/grave2.png" trans="ff00ff" width="64" height="68"/>
 </tileset>
 <tileset firstgid="13" name="house1" tilewidth="128" tileheight="192" tilecount="1" columns="1">
  <image source="tiles/dungeon2/house1.png" trans="ff00ff" width="128" height="192"/>
 </tileset>
 <tileset firstgid="14" name="pine2" tilewidth="64" tileheight="179" tilecount="1" columns="1">
  <image source="tiles/dungeon2/pine2.png" trans="ff00ff" width="64" height="179"/>
 </tileset>
 <tileset firstgid="15" name="rock3" tilewidth="64" tileheight="66" tilecount="1" columns="1">
  <image source="tiles/dungeon2/rock3.png" trans="ff00ff" width="64" height="66"/>
 </tileset>
 <tileset firstgid="16" name="tent2" tilewidth="160" tileheight="141" tilecount="1" columns="1">
  <image source="tiles/dungeon2/tent2.png" trans="ff00ff" width="160" height="141"/>
 </tileset>
 <tileset firstgid="17" name="tile2" tilewidth="64" tileheight="32" tilecount="1" columns="1">
  <properties>
   <property name="walkable" type="bool" value="false"/>
  </properties>
  <image source="tiles/dungeon2/tile2.png" trans="ff00ff" width="64" height="32"/>
 </tileset>
 <tileset firstgid="18" name="tomb1" tilewidth="69" tileheight="128" tilecount="1" columns="1">
  <image source="tiles/dungeon2/tomb1.png" trans="ff00ff" width="69" height="128"/>
 </tileset>
 <tileset firstgid="19" name="tree3" tilewidth="64" tileheight="137" tilecount="1" columns="1">
  <image source="tiles/dungeon2/tree3.png" trans="ff00ff" width="64" height="137"/>
 </tileset>
 <tileset firstgid="20" name="well1" tilewidth="64" tileheight="81" tilecount="1" columns="1">
  <image source="tiles/dungeon2/well1.png" trans="ff00ff" width="64" height="81"/>
 </tileset>
 <tileset firstgid="21" name="wood2" tilewidth="77" tileheight="80" tilecount="1" columns="1">
  <image source="tiles/dungeon2/wood2.png" trans="ff00ff" width="77" height="80"/>
 </tileset>
 <tileset firstgid="22" name="wood3" tilewidth="108" tileheight="70" tilecount="1" columns="1">
  <image source="tiles/dungeon2/wood3.png" trans="ff00ff" width="108" height="70"/>
 </tileset>
 <tileset firstgid="23" name="wall" tilewidth="79" tileheight="119" tilecount="1" columns="1">
  <tileoffset x="0" y="10"/>
  <image source="tiles/dungeon2/wall.png" trans="ff00ff" width="79" height="119"/>
 </tileset>
 <tileset firstgid="24" name="wall2" tilewidth="79" tileheight="119" tilecount="1" columns="1">
  <tileoffset x="15" y="10"/>
  <image source="tiles/dungeon2/wall2.png" trans="ff00ff" width="79" height="119"/>
 </tileset>
 <tileset firstgid="25" name="column1" tilewidth="64" tileheight="139" tilecount="1" columns="1">
  <image source="tiles/dungeon2/column1.png" trans="ff00ff" width="64" height="139"/>
 </tileset>
 <tileset firstgid="26" name="candle" tilewidth="30" tileheight="25" tilecount="1" columns="1">
  <tileoffset x="15" y="0"/>
  <image source="tiles/dungeon2/candle.png" trans="ff00ff" width="30" height="25"/>
 </tileset>
 <tileset firstgid="27" name="carpet" tilewidth="97" tileheight="50" tilecount="1" columns="1">
  <image source="tiles/dungeon2/carpet.png" trans="ff00ff" width="97" height="50"/>
 </tileset>
 <tileset firstgid="28" name="table" tilewidth="84" tileheight="69" tilecount="1" columns="1">
  <tileoffset x="-20" y="10"/>
  <image source="tiles/dungeon2/table.png" trans="ff00ff" width="84" height="69"/>
 </tileset>
 <tileset firstgid="29" name="gate1" tilewidth="96" tileheight="242" tilecount="1" columns="1">
  <image source="tiles/dungeon2/gate1.png" trans="ff00ff" width="96" height="242"/>
 </tileset>
 <layer id="2" name="terrain_layer" width="30" height="30">
  <data encoding="csv">
17,17,17,17,17,17,17,17,17,17,17,0,17,17,17,17,0,0,0,0,0,0,0,0,0,0,0,0,0,0,
17,0,0,0,0,0,0,0,0,0,0,0,0,0,0,0,0,0,0,0,0,0,0,0,0,0,0,0,0,0,
17,17,0,0,0,0,0,0,0,0,0,0,0,0,0,0,0,0,0,0,0,0,0,0,0,0,0,0,0,0,
17,17,17,0,0,0,0,0,0,0,0,0,0,0,0,0,0,0,0,0,0,0,0,0,0,0,0,0,0,0,
0,0,17,0,0,0,0,0,0,0,0,0,0,0,0,0,0,0,0,0,0,0,0,0,0,0,0,0,0,0,
0,0,17,0,0,0,0,0,0,0,0,0,0,0,0,0,0,0,0,0,0,0,0,0,0,0,0,0,0,0,
17,17,17,0,0,0,0,0,0,0,0,0,0,0,0,17,17,17,17,17,17,17,17,17,0,0,0,0,0,0,
17,0,0,0,0,0,0,0,0,0,0,0,0,0,0,17,0,0,17,17,17,17,17,17,0,0,0,0,0,0,
0,0,0,0,0,0,0,0,0,0,0,0,0,0,0,17,0,0,0,0,17,0,17,17,17,0,0,0,0,0,
0,0,0,0,0,0,0,0,0,0,0,0,0,0,0,17,0,0,0,0,0,0,0,0,0,0,0,0,0,0,
17,0,0,0,0,0,0,0,0,0,0,0,0,0,0,0,0,0,0,0,0,0,0,0,0,0,0,0,0,0,
17,0,0,0,0,0,0,0,0,0,0,0,0,0,0,0,0,0,0,0,0,0,0,0,0,0,17,0,0,0,
17,0,0,0,0,0,0,0,0,0,0,0,0,0,0,0,0,0,0,0,0,0,0,0,0,0,0,17,0,0,
0,0,0,0,0,0,0,0,0,0,0,0,0,0,0,0,0,0,0,0,0,0,0,0,0,0,0,0,17,0,
0,0,0,17,17,17,0,0,17,17,17,17,17,17,17,0,0,0,0,0,0,0,0,0,0,0,0,0,17,0,
17,17,17,0,0,0,0,0,17,0,17,17,17,0,17,17,0,17,17,0,0,0,0,0,0,0,0,17,17,0,
17,17,0,0,0,0,0,0,0,0,0,0,0,0,0,0,0,17,17,17,0,0,0,0,0,0,0,0,17,0,
17,0,0,0,0,0,0,0,0,0,0,0,0,0,0,0,0,17,17,17,0,0,0,0,0,0,0,0,17,17,
17,0,0,0,0,0,0,0,0,0,0,0,0,0,0,0,0,17,17,0,0,0,0,0,0,0,17,17,17,17,
17,0,0,0,0,0,0,0,0,0,0,0,0,0,0,0,0,17,17,0,0,0,0,0,0,0,0,17,17,0,
17,17,0,0,0,0,0,0,0,0,0,0,0,0,0,0,0,17,17,0,0,0,0,0,0,0,0,0,0,0,
17,0,0,0,0,0,0,0,0,0,0,0,0,0,0,0,0,0,0,0,0,0,0,0,0,0,0,0,0,0,
0,0,0,0,0,0,0,0,0,0,0,0,0,0,0,0,0,0,0,0,0,0,0,0,0,0,0,0,0,0,
0,0,0,0,0,0,0,0,0,0,0,0,0,0,0,0,0,0,0,0,0,0,0,0,0,0,0,0,0,0,
0,0,0,0,0,0,0,0,0,0,0,0,0,0,0,0,0,0,0,0,0,0,0,0,0,0,0,0,0,0,
0,0,0,0,0,0,0,0,0,0,0,0,0,0,0,0,0,0,0,0,17,17,0,0,0,0,0,0,0,0,
0,0,0,0,0,0,17,17,17,0,0,0,0,0,0,0,0,0,0,0,0,0,0,0,0,17,0,0,0,0,
0,0,0,0,0,0,17,17,0,0,0,0,0,0,0,0,0,0,0,0,17,0,0,0,0,0,17,0,0,0,
0,0,0,0,0,0,17,17,0,0,0,0,0,0,0,0,0,0,0,0,0,0,0,0,0,17,17,0,0,0,
0,0,0,0,0,0,17,0,0,0,17,17,0,0,0,0,0,0,0,0,17,0,0,0,0,17,17,0,0,0
</data>
 </layer>
 <layer id="1" name="ground_layer" width="30" height="30" offsetx="0" offsety="32">
  <data encoding="csv">
1,1,1,1,1,1,1,1,1,1,1,1,1,1,1,1,0,0,0,0,0,0,0,0,0,0,0,0,0,0,
1,1,1,1,1,1,1,1,1,1,1,1,1,1,1,1,0,0,0,0,0,0,0,0,0,0,0,0,0,0,
1,1,1,1,1,1,1,1,1,1,1,1,1,1,1,1,0,0,0,0,0,0,0,0,0,0,0,0,0,0,
1,1,1,1,1,1,1,1,1,1,1,1,1,1,0,0,0,0,0,0,0,0,0,0,0,0,0,0,0,0,
0,0,0,1,1,1,1,1,1,1,1,1,1,0,0,0,0,0,0,0,0,0,0,0,0,0,0,0,0,0,
0,0,0,1,1,1,1,1,1,1,1,1,0,0,0,0,0,0,0,0,0,0,0,0,0,0,0,0,0,0,
1,1,1,1,1,1,1,1,1,1,1,1,0,0,0,0,1,1,1,1,1,1,1,1,0,0,0,0,0,0,
1,1,1,1,1,1,0,0,0,0,0,0,0,0,0,0,1,1,1,1,1,1,1,1,1,0,0,0,0,0,
1,1,1,1,1,1,0,0,0,0,0,0,0,0,0,0,1,1,1,1,1,1,1,1,1,0,0,0,0,0,
1,1,1,1,1,1,0,0,0,0,0,0,0,0,0,0,1,1,1,1,1,1,1,1,1,0,0,0,0,0,
1,1,1,1,1,1,1,1,1,1,1,1,1,1,1,1,1,1,1,1,1,1,1,1,1,1,0,0,0,0,
1,1,1,1,1,1,1,1,1,1,1,1,1,1,1,1,1,1,1,1,1,1,1,1,1,1,1,0,0,0,
1,1,1,1,1,1,0,0,0,0,0,0,0,0,0,0,0,1,1,1,1,1,1,1,1,1,1,1,0,0,
0,0,0,1,1,1,0,0,0,0,0,0,0,0,0,0,0,1,1,1,1,1,1,1,1,1,1,1,1,0,
0,0,0,1,1,1,0,0,1,1,1,1,1,1,1,0,0,1,1,1,1,1,1,1,1,1,1,1,1,1,
1,1,1,1,1,1,0,0,1,1,1,1,1,1,1,0,0,1,1,1,1,1,1,1,1,1,1,1,1,1,
1,1,1,1,1,1,0,0,1,1,1,1,1,1,1,0,0,1,1,1,1,1,1,1,1,1,1,1,1,1,
1,1,1,1,1,1,0,0,1,1,1,1,1,1,1,0,0,1,1,1,1,1,1,1,1,1,1,1,1,1,
1,1,1,1,1,1,0,0,1,1,1,1,1,1,1,0,0,1,1,1,1,1,1,1,1,1,1,1,1,0,
1,1,1,1,1,1,0,0,1,1,1,1,1,1,1,0,0,1,1,1,1,1,1,1,1,1,1,0,0,0,
1,1,1,1,1,1,0,0,1,1,1,1,1,1,1,0,0,1,1,1,1,1,1,1,1,1,0,0,0,0,
0,0,0,0,0,0,0,0,0,0,0,1,0,0,0,0,0,0,0,0,0,0,1,1,0,0,0,0,0,0,
0,0,0,0,0,0,0,0,0,0,0,1,0,0,0,0,0,0,0,0,0,0,1,1,0,0,0,0,0,0,
0,0,0,0,0,0,0,0,0,1,1,1,0,0,0,0,0,0,0,0,0,0,1,1,0,0,0,0,0,0,
0,0,0,0,0,0,0,0,0,1,0,0,0,0,0,0,0,0,0,0,0,0,1,1,0,0,0,0,0,0,
0,0,0,0,0,0,0,0,0,1,0,0,0,0,0,0,0,0,0,0,1,1,1,1,1,0,0,0,0,0,
0,0,0,0,0,0,1,1,1,1,1,1,1,1,1,0,0,0,0,0,1,1,1,1,1,1,0,0,0,0,
0,0,0,0,0,0,1,1,1,1,1,1,1,1,1,0,0,0,0,0,1,1,1,1,1,1,1,0,0,0,
0,0,0,0,0,0,1,1,1,1,1,1,1,1,1,1,1,1,1,1,1,1,1,1,1,1,1,0,0,0,
0,0,0,0,0,0,1,1,1,1,1,1,1,1,1,0,0,0,0,0,1,1,1,1,1,1,1,0,0,0
</data>
 </layer>
 <layer id="3" name="layer3" width="30" height="30">
  <data encoding="csv">
0,24,0,24,0,24,0,24,0,24,0,24,0,24,24,0,0,0,0,0,0,0,0,0,0,0,0,0,0,0,
23,3,0,0,0,0,0,0,0,0,0,0,0,0,0,0,0,0,0,0,0,0,0,0,0,0,0,0,0,0,
0,2,0,0,0,0,0,0,0,0,0,0,0,0,0,0,0,0,0,0,0,0,0,0,0,0,0,0,0,0,
23,2,2,0,0,0,0,0,0,0,0,0,0,0,0,0,0,0,0,0,0,0,0,0,0,0,0,0,0,0,
0,24,0,0,0,0,0,0,0,0,0,0,0,0,0,0,0,0,0,0,0,0,0,0,0,0,0,0,0,0,
0,0,23,0,0,0,0,0,0,0,0,0,0,0,0,0,0,0,0,0,0,0,0,0,0,0,0,0,0,0,
0,24,0,0,0,0,0,0,0,0,0,0,0,0,0,0,24,0,24,0,24,0,24,0,0,0,0,0,0,0,
23,0,0,0,0,0,0,0,0,0,0,0,0,0,0,23,26,0,2147483660,26,26,0,0,0,0,0,0,0,0,0,
0,0,0,0,0,0,0,0,0,0,0,0,0,0,0,0,26,0,0,0,0,0,0,0,0,0,0,0,0,0,
27,0,0,0,0,0,0,0,0,0,0,0,0,0,0,23,0,0,0,0,0,0,0,0,0,0,0,0,0,0,
0,0,0,0,0,0,0,0,0,0,0,0,0,0,0,0,0,0,0,0,0,0,0,0,0,0,0,0,0,0,
23,0,0,0,0,0,0,0,0,0,0,0,0,0,0,0,0,0,0,0,0,0,0,0,0,0,0,0,0,0,
23,0,0,0,0,0,0,0,0,0,0,0,0,0,0,0,0,0,0,0,0,0,0,0,0,0,17,0,0,0,
0,0,0,0,0,0,0,0,0,0,0,0,0,0,0,0,0,0,0,0,0,0,0,0,0,0,17,17,0,0,
0,0,0,0,0,0,0,0,0,0,0,0,0,0,0,0,0,0,0,0,0,0,0,0,0,27,17,17,17,0,
0,24,0,0,0,0,0,0,0,0,0,0,0,0,0,0,0,0,0,0,0,0,0,0,0,0,17,17,17,0,
23,14,0,0,0,0,0,0,0,0,0,0,0,0,0,0,0,0,0,0,0,0,0,0,0,27,17,17,17,0,
0,0,5,5,5,0,0,0,0,0,0,0,0,0,0,0,0,0,0,0,0,0,0,0,0,0,17,17,0,0,
23,0,5,0,5,0,0,0,0,0,0,0,0,0,0,0,0,0,0,0,0,0,0,0,0,0,17,0,0,0,
0,0,5,5,5,0,0,0,0,0,0,0,0,0,0,0,0,0,0,0,0,0,0,0,0,0,17,0,0,0,
23,14,0,0,0,5,0,0,0,0,0,0,0,0,0,0,0,22,22,0,0,0,0,0,0,0,0,0,0,0,
0,0,0,0,0,0,0,0,0,0,0,17,0,0,0,0,0,0,0,0,0,0,0,0,0,0,0,0,0,0,
0,0,0,0,0,0,0,0,0,0,0,17,0,0,0,0,0,0,0,0,0,0,0,0,0,0,0,0,0,0,
0,0,0,0,0,0,0,0,0,17,17,17,0,0,0,0,0,0,0,0,0,0,0,0,0,0,0,0,0,0,
0,0,0,0,0,0,0,0,0,17,0,0,0,0,0,0,0,0,0,0,0,0,0,0,0,0,0,0,0,0,
0,0,0,0,0,0,0,0,0,17,0,0,0,0,0,0,0,0,0,0,24,0,0,0,0,0,0,0,0,0,
0,0,0,0,0,0,2147483651,24,0,0,0,0,0,0,0,0,0,0,0,0,8,0,0,0,0,0,0,0,0,0,
0,0,0,0,0,0,23,0,0,0,0,0,0,0,0,0,0,0,0,0,8,0,0,0,0,0,0,0,0,0,
0,0,0,0,0,0,0,0,0,0,0,0,0,0,0,0,0,0,0,0,0,0,0,0,0,0,0,0,0,0,
0,0,0,0,0,0,23,0,0,0,0,0,0,0,0,0,0,0,0,0,2,0,0,0,0,0,0,0,0,0
</data>
 </layer>
 <layer id="5" name="layer4" width="30" height="30">
  <data encoding="csv">
0,2147483652,2147483652,2147483652,2147483652,2147483652,2147483652,2147483652,2147483652,2147483652,2147483652,0,2147483652,2147483652,2147483652,2147483652,0,0,0,0,0,0,0,0,0,0,0,0,0,0,
0,0,0,0,0,0,0,0,0,0,0,0,0,0,0,0,0,0,0,0,0,0,0,0,0,0,0,0,0,0,
0,0,0,0,0,0,0,0,0,0,0,0,0,0,0,0,0,0,0,0,0,0,0,0,0,0,0,0,0,0,
0,0,0,0,0,0,0,0,0,0,0,0,0,0,0,0,0,0,0,0,0,0,0,0,0,0,0,0,0,0,
0,0,0,0,0,0,0,0,0,0,0,0,0,0,0,0,0,0,0,0,0,0,0,0,0,0,0,0,0,0,
0,0,0,0,0,0,0,0,0,0,0,0,0,0,0,0,0,0,0,0,0,0,0,0,0,0,0,0,0,0,
0,0,0,0,0,0,0,0,0,0,0,0,0,0,0,0,0,0,0,0,0,0,0,0,0,0,0,0,0,0,
0,0,0,0,0,0,0,0,0,0,0,0,0,0,0,0,0,0,0,0,0,0,0,0,0,0,0,0,0,0,
0,0,0,0,0,0,0,0,0,0,0,0,0,0,0,0,0,0,0,0,0,0,0,2147483661,0,0,0,0,0,0,
2147483677,0,0,0,0,0,0,0,0,0,0,0,0,0,0,0,0,0,0,0,0,0,0,0,0,0,0,0,0,0,
0,0,0,0,0,0,0,0,0,0,0,0,0,0,0,0,0,0,0,0,0,0,0,0,0,0,0,0,0,0,
0,0,0,0,0,0,0,0,0,0,0,0,0,0,0,0,0,0,0,0,0,0,0,0,0,0,5,0,0,0,
0,0,0,0,0,0,0,0,0,0,0,0,0,0,0,0,0,0,0,0,0,0,0,0,0,0,2147483674,5,0,0,
0,0,0,0,0,0,0,0,0,0,0,0,0,0,0,0,0,0,0,0,0,0,0,0,0,0,0,2147483674,0,0,
0,0,0,6,6,0,0,0,26,26,0,0,2147483674,2147483674,2147483674,0,0,0,0,0,0,0,0,0,0,0,0,0,0,15,
0,0,0,0,0,0,0,0,25,0,0,7,0,0,25,0,0,0,0,0,0,0,0,0,0,0,0,0,28,15,
0,5,5,5,5,5,0,0,0,0,0,0,0,0,0,0,0,0,0,0,0,0,0,0,0,0,0,0,2147483674,15,
0,5,0,0,0,5,0,0,0,0,0,0,0,0,0,0,0,0,0,0,0,0,0,0,0,0,0,26,5,15,
0,5,0,6,0,5,0,0,0,0,0,0,0,0,0,0,0,0,2147483664,0,0,0,0,0,0,0,26,5,5,0,
0,5,0,0,0,5,0,0,0,0,0,0,0,0,0,0,0,0,0,0,0,0,0,0,0,0,0,0,0,0,
0,5,5,5,5,0,0,0,0,0,0,0,0,0,0,0,0,0,0,0,0,0,0,0,0,0,0,0,0,0,
0,0,0,0,0,0,0,0,0,0,0,0,0,0,0,0,0,0,0,0,0,0,0,0,0,0,0,0,0,0,
0,0,0,0,0,0,0,0,0,0,0,0,0,0,0,0,0,0,0,0,0,0,0,0,0,0,0,0,0,0,
0,0,0,0,0,0,0,0,0,0,0,0,0,0,0,0,0,0,0,0,0,0,0,0,0,0,0,0,0,0,
0,0,0,0,0,0,0,0,0,0,0,0,0,0,0,0,0,0,0,0,0,0,0,0,0,0,0,0,0,0,
0,0,0,0,0,0,0,0,0,2147483658,0,0,0,0,0,0,0,0,0,0,0,0,0,0,0,0,0,0,0,0,
0,0,0,0,0,0,0,0,18,0,0,0,0,0,0,0,0,0,0,0,0,0,0,0,0,2,0,0,0,0,
0,0,0,0,0,0,0,4,0,0,0,0,0,0,0,0,0,0,0,0,0,0,0,0,0,0,2,0,0,0,
0,0,0,0,0,0,0,4,0,0,0,0,0,0,0,10,0,0,0,0,0,0,0,0,0,0,0,0,0,0,
0,0,0,0,0,0,0,0,0,0,2147483657,2147483657,0,0,0,0,0,0,0,0,0,0,0,0,0,0,22,0,0,0
</data>
 </layer>
 <objectgroup id="4" name="object">
  <object id="1" x="32" y="32" width="32" height="32">
   <properties>
    <property name="amount" type="int" value="1"/>
    <property name="event" value="treasure"/>
    <property name="id" value="dungeon_1"/>
    <property name="item" value="6"/>
    <property name="one_time" type="bool" value="true"/>
   </properties>
  </object>
  <object id="8" x="1024" y="384"/>
  <object id="11" x="640" y="832" width="32" height="32">
   <properties>
    <property name="event" value="trap"/>
    <property name="hp" type="int" value="2"/>
    <property name="id" value="dugeon_8"/>
    <property name="one_time" type="bool" value="true"/>
   </properties>
  </object>
  <object id="12" x="64" y="640" width="32" height="32">
   <properties>
    <property name="event" value="flag"/>
    <property name="flag" value="ghost_ashes"/>
    <property name="id" value="dungeon_34"/>
    <property name="one_time" type="bool" value="true"/>
   </properties>
  </object>
  <object id="18" x="352" y="32" width="32" height="32">
   <properties>
    <property name="event" value="gate"/>
    <property name="id" value="dungeon_12"/>
    <property name="xTarget" value="4"/>
    <property name="yTarget" value="14"/>
   </properties>
  </object>
  <object id="19" x="64" y="576"/>
  <object id="24" x="576" y="256" width="32" height="32">
   <properties>
    <property name="event" value="message"/>
    <property name="flag" value="ghost_name"/>
    <property name="id" value="dungeon_28"/>
    <property name="message" value="Mộ của: Armon"/>
   </properties>
  </object>
  <object id="26" x="256" y="864" width="32" height="32">
   <properties>
    <property name="event" value="flag"/>
    <property name="flag" value="acient_note"/>
    <property name="id" value="dungeon_32"/>
    <property name="one_time" type="bool" value="true"/>
   </properties>
  </object>
  <object id="28" x="736" y="288" width="32" height="32">
   <properties>
    <property name="event" value="message"/>
    <property name="flag" value="ghost_name"/>
    <property name="id" value="dungeon_2"/>
    <property name="message" value="Nhà của: Armon"/>
   </properties>
  </object>
  <object id="29" x="352" y="512" width="32" height="32">
   <properties>
    <property name="cutscene" value="completed_dungeon2"/>
    <property name="event" value="cutscene"/>
    <property name="id" value="dungeon_44"/>
    <property name="one_time" type="bool" value="true"/>
   </properties>
  </object>
  <object id="30" x="448" y="1024"/>
  <object id="32" x="640" y="544" width="32" height="32">
   <properties>
    <property name="amount" type="int" value="1"/>
    <property name="event" value="treasure"/>
    <property name="id" value="dungeon_5"/>
    <property name="item" value="1"/>
    <property name="one_time" type="bool" value="true"/>
   </properties>
  </object>
  <object id="34" x="0" y="256" width="32" height="32">
   <properties>
    <property name="event" value="tele"/>
    <property name="id" value="dungeon_6"/>
    <property name="map" value="unknown"/>
   </properties>
  </object>
  <object id="36" x="0" y="288" width="32" height="32">
   <properties>
    <property name="event" value="tele"/>
    <property name="id" value="dungeon_7"/>
    <property name="map" value="unknown"/>
   </properties>
  </object>
 </objectgroup>
</map>
