<?xml version="1.0" encoding="UTF-8"?>
<map version="1.10" tiledversion="1.11.2" orientation="isometric" renderorder="right-down" width="25" height="25" tilewidth="64" tileheight="32" infinite="0" nextlayerid="4" nextobjectid="2">
 <tileset firstgid="1" name="freetileset" tilewidth="64" tileheight="64" tilecount="20" columns="5">
  <image source="tiles/freetileset.png" trans="ff00ff" width="320" height="256"/>
 </tileset>
 <tileset firstgid="21" name="bookStand_W" tilewidth="33" tileheight="40" tilecount="1" columns="1">
  <image source="tiles/lib/bookStand_W.png" trans="ff00ff" width="33" height="40"/>
 </tileset>
 <tileset firstgid="22" name="Premium_TreesUpdated_No_Outline" tilewidth="45" tileheight="83" tilecount="1" columns="1">
  <image source="tiles/Premium_TreesUpdated_No_Outline.png" trans="ff00ff" width="45" height="83"/>
 </tileset>
 <layer id="1" name="ground_layer" width="25" height="25">
  <data encoding="csv">
6,6,6,6,6,6,6,6,6,6,6,6,6,6,6,6,6,6,6,6,6,6,6,6,6,
6,6,6,6,6,16,6,6,6,6,6,6,6,6,6,6,16,6,6,6,6,6,6,6,6,
6,6,6,6,6,6,6,16,6,6,6,6,6,6,6,6,6,6,6,6,6,6,6,6,6,
6,6,6,6,6,7,6,6,6,6,6,16,6,16,6,6,6,6,6,6,6,6,6,6,6,
6,6,6,6,6,6,6,6,6,6,6,6,6,7,6,6,6,6,6,6,16,6,6,6,6,
6,6,6,6,6,6,6,6,6,6,6,6,6,6,6,6,6,6,6,6,6,6,6,6,6,
6,6,6,6,6,6,6,6,6,6,6,7,6,6,6,6,6,6,6,6,6,6,6,6,6,
6,6,6,6,6,6,6,6,16,16,16,6,7,6,6,6,6,6,6,6,6,6,6,6,6,
6,6,6,6,6,6,6,6,6,16,6,6,6,6,6,6,6,6,6,6,6,6,6,6,6,
22,22,6,6,6,6,6,6,6,6,6,6,6,6,6,6,6,6,16,6,6,6,6,6,6,
7,7,6,6,6,6,6,6,6,6,6,6,6,6,7,6,6,6,7,6,6,6,6,6,6,
17,6,6,6,6,6,6,6,6,6,6,6,6,6,6,6,6,6,6,6,6,6,6,6,6,
17,7,6,7,6,6,6,6,6,6,6,6,6,6,6,6,6,6,6,6,6,6,6,6,6,
22,6,6,6,6,6,6,7,6,6,6,6,6,6,6,16,6,6,6,6,6,6,6,6,6,
6,6,6,6,6,6,6,6,6,6,6,6,6,6,6,16,6,6,6,7,6,6,6,6,6,
6,6,6,6,6,6,16,6,6,7,6,6,6,6,6,6,6,6,16,6,6,6,6,6,6,
6,6,6,6,6,6,6,6,6,6,6,6,6,6,6,6,6,6,6,6,6,6,6,6,6,
6,6,6,6,6,6,6,6,6,6,6,7,6,6,6,6,6,6,6,6,6,6,6,6,6,
6,6,6,6,6,6,6,6,16,16,6,6,6,6,6,6,6,6,6,6,6,6,6,6,6,
6,6,6,6,6,6,6,6,7,6,6,6,16,6,6,6,6,6,6,6,6,6,6,6,6,
6,6,6,6,6,6,6,6,6,6,7,6,6,6,6,6,16,6,6,6,6,6,6,6,6,
6,6,6,6,6,6,6,6,6,6,6,6,6,6,6,6,6,6,6,6,6,6,6,6,6,
6,6,6,6,6,16,6,6,6,6,6,6,6,6,6,6,6,6,6,6,6,6,6,6,6,
6,6,6,6,6,6,6,6,6,6,6,6,6,6,6,6,6,6,6,6,6,6,6,6,6,
6,6,6,6,6,6,6,6,6,6,6,6,6,6,6,6,6,6,6,6,6,6,6,6,6
</data>
 </layer>
 <layer id="2" name="terrain_layer" width="25" height="25">
  <properties>
   <property name="walkable" type="bool" value="false"/>
  </properties>
  <data encoding="csv">
22,22,22,22,22,22,22,22,22,22,22,22,22,22,22,22,22,22,22,22,22,22,22,22,0,
22,22,22,22,22,22,22,22,22,22,22,22,22,22,22,22,22,22,22,22,22,22,22,22,0,
22,22,22,22,22,22,22,22,22,22,22,22,22,22,22,22,22,22,22,22,22,22,22,22,0,
22,22,22,22,22,22,22,0,0,0,0,0,0,0,22,22,22,22,22,22,22,22,22,22,0,
22,22,22,22,22,22,0,0,0,0,0,0,0,0,0,0,22,22,22,22,22,22,22,22,0,
22,22,22,22,0,0,0,0,0,0,0,0,0,0,0,0,11,22,22,22,22,22,22,22,0,
22,22,22,0,0,0,0,0,0,0,0,0,0,0,0,0,11,11,22,22,22,22,22,22,0,
22,22,22,0,0,0,0,0,0,0,0,0,0,0,0,0,0,11,22,22,22,22,22,22,0,
22,22,0,0,0,0,0,0,0,0,0,0,0,0,0,0,0,11,11,22,22,22,22,22,0,
22,22,0,0,0,0,0,0,0,0,0,0,0,0,0,0,0,11,11,22,22,22,22,22,0,
0,0,0,0,0,0,0,0,0,0,0,0,0,0,0,0,0,0,11,22,22,22,22,22,0,
0,0,0,0,0,0,0,0,0,0,0,0,0,0,0,0,0,11,11,22,22,22,22,22,0,
11,0,0,0,0,0,0,0,0,0,0,0,0,0,0,0,0,11,0,22,22,22,22,22,0,
22,22,0,0,0,0,0,0,0,0,0,0,0,0,0,0,0,11,11,22,22,22,22,22,0,
22,22,22,0,0,0,0,0,0,0,0,0,0,0,0,0,0,0,22,22,22,22,22,22,0,
22,22,22,0,0,0,0,0,0,0,0,0,0,0,0,0,11,11,22,22,22,22,22,22,0,
22,22,22,11,11,0,0,0,0,0,0,0,0,0,0,0,11,11,22,22,22,22,22,22,0,
22,22,22,22,11,11,0,0,0,0,0,0,0,0,11,11,11,22,22,22,22,22,22,22,0,
22,22,22,22,22,11,11,11,11,11,11,11,11,11,11,11,22,22,22,22,22,22,22,22,0,
22,22,22,22,22,22,22,22,11,0,0,22,22,11,22,0,22,22,22,22,22,22,22,22,0,
22,22,22,22,22,22,22,22,22,22,22,22,22,22,22,22,22,22,22,22,22,22,22,22,0,
22,22,22,22,22,22,22,22,22,22,22,22,22,22,22,22,22,22,22,22,22,22,22,22,0,
22,22,22,22,22,22,22,22,22,22,22,22,22,22,22,22,22,22,22,22,22,22,22,22,0,
22,22,22,22,22,22,22,22,22,22,22,22,22,22,22,22,22,22,22,22,22,22,22,22,0,
0,0,0,0,0,0,0,0,0,0,0,0,0,0,0,0,0,0,0,0,0,0,0,0,0
</data>
 </layer>
 <objectgroup id="3" name="object"/>
</map>
