<?xml version="1.0" encoding="UTF-8"?>
<map version="1.10" tiledversion="1.11.2" orientation="isometric" renderorder="right-down" width="17" height="17" tilewidth="64" tileheight="32" infinite="0" nextlayerid="6" nextobjectid="5">
 <tileset firstgid="1" name="frozen2" tilewidth="64" tileheight="64" tilecount="20" columns="4">
  <image source="tiles/frozen2.png" trans="ff00ff" width="256" height="379"/>
 </tileset>
 <tileset firstgid="21" name="frozen" tilewidth="64" tileheight="32" tilecount="56" columns="4">
  <image source="tiles/frozen.png" trans="ff00ff" width="256" height="448"/>
 </tileset>
 <tileset firstgid="77" name="tree_fir" tilewidth="64" tileheight="95" tilecount="1" columns="1">
  <image source="tiles/tree_fir.png" trans="ff00ff" width="64" height="95"/>
 </tileset>
 <tileset firstgid="78" name="decoration_sword_in_the_stone" tilewidth="64" tileheight="63" tilecount="1" columns="1">
  <image source="tiles/decoration_sword_in_the_stone.png" trans="ff00ff" width="64" height="63"/>
 </tileset>
 <tileset firstgid="79" name="background_mountain_1" tilewidth="192" tileheight="159" tilecount="1" columns="1">
  <image source="tiles/background_mountain_1.png" trans="ff00ff" width="192" height="159"/>
 </tileset>
 <tileset firstgid="80" name="decoration_snowcap_rock_2" tilewidth="64" tileheight="63" tilecount="1" columns="1">
  <properties>
   <property name="walkable" type="bool" value="false"/>
  </properties>
  <image source="tiles/decoration_snowcap_rock_2.png" trans="ff00ff" width="64" height="63"/>
 </tileset>
 <tileset firstgid="81" name="decoration_snowcap_rock_2" tilewidth="64" tileheight="63" tilecount="1" columns="1">
  <image source="tiles/decoration_snowcap_rock_2.png" trans="ff00ff" width="64" height="63"/>
 </tileset>
 <tileset firstgid="82" name="new_run" tilewidth="32" tileheight="64" tilecount="1" columns="1">
  <tileoffset x="15" y="-10"/>
  <image source="tiles/tower/new_run.png" trans="ff00ff" width="32" height="64"/>
 </tileset>
 <layer id="2" name="terrain_layer" width="17" height="17">
  <data encoding="csv">
0,0,0,0,0,80,80,80,80,80,80,0,0,0,0,0,0,
0,0,0,0,0,80,80,0,80,0,80,0,0,0,0,0,0,
0,0,0,0,0,80,0,0,0,0,80,80,0,0,0,0,0,
0,0,80,0,0,80,0,0,0,0,80,0,0,0,0,0,0,
0,0,80,0,0,80,0,0,0,0,80,0,0,0,0,0,0,
80,80,80,0,0,0,0,0,0,0,0,0,0,0,0,0,0,
80,80,80,80,0,0,0,0,0,0,0,0,0,0,0,0,0,
80,80,80,80,0,0,0,0,0,0,0,0,0,0,0,0,80,
80,80,80,80,0,0,0,0,0,0,0,0,0,0,0,0,0,
80,80,80,80,0,0,0,0,0,0,0,0,0,0,0,0,0,
0,0,0,0,0,0,0,0,0,0,0,0,0,0,0,0,0,
0,0,0,0,0,0,0,0,0,0,0,0,0,0,80,0,0,
0,0,0,0,0,0,0,0,0,0,0,0,0,0,0,0,0,
0,0,0,0,0,0,0,0,0,0,0,0,0,80,0,0,0,
80,80,0,0,80,0,0,0,0,0,0,0,0,0,0,0,0,
80,80,80,80,80,80,0,0,0,0,0,0,0,0,0,0,0,
80,80,80,80,80,80,0,0,0,0,0,0,0,0,0,0,0
</data>
 </layer>
 <layer id="1" name="ground_layer" width="17" height="17">
  <data encoding="csv">
25,25,25,25,25,52,52,52,52,52,52,43,25,25,25,25,25,
52,28,25,60,52,52,52,41,52,52,52,52,43,27,25,25,25,
50,52,52,52,52,52,52,52,52,25,25,52,52,25,25,25,41,
25,25,50,52,52,52,52,52,52,52,25,52,33,25,25,44,34,
25,25,25,50,52,52,52,28,52,27,52,52,25,25,25,34,34,
25,25,25,25,27,52,52,52,52,52,52,41,25,25,26,34,34,
25,25,25,25,27,50,41,52,52,52,2147483681,25,25,25,25,34,34,
25,25,25,25,25,25,25,52,52,25,25,25,25,25,26,34,34,
25,25,25,25,25,25,25,50,49,25,25,25,25,25,25,34,34,
25,25,25,25,25,25,25,25,25,25,25,28,25,25,44,34,34,
25,25,25,25,25,25,25,25,25,25,25,50,34,34,34,34,34,
25,25,25,25,25,25,25,25,25,25,25,25,50,34,34,34,2147483681,
34,34,43,25,25,25,25,25,25,25,25,25,25,34,34,25,25,
34,34,34,25,25,25,25,25,25,25,25,25,25,34,34,25,25,
42,34,34,34,43,25,25,25,25,25,25,25,25,34,67,25,25,
42,6,2,2,4,43,25,25,25,25,25,25,25,50,67,25,25,
42,9,9,9,6,34,34,34,34,43,25,25,25,25,25,25,25
</data>
 </layer>
 <layer id="4" name="layer3" width="17" height="17">
  <data encoding="csv">
0,0,0,0,0,8,8,8,8,8,4,0,0,0,0,0,0,
0,0,0,0,0,7,80,78,80,0,6,0,0,0,0,0,0,
0,0,0,0,0,7,0,0,0,0,6,77,0,0,0,0,0,
0,0,77,0,0,7,0,0,0,0,6,0,0,0,0,0,0,
0,0,77,0,0,6,0,0,0,0,6,0,0,0,0,0,0,
0,0,0,0,0,0,0,0,0,0,0,0,0,0,0,0,0,
0,0,0,0,0,0,0,0,0,0,0,0,0,0,0,0,0,
0,0,0,0,0,0,0,0,0,0,0,0,0,0,0,0,77,
0,0,0,0,0,0,0,0,0,0,0,0,0,0,0,0,0,
0,0,0,0,0,0,0,0,0,0,0,0,0,0,0,0,0,
0,0,79,0,0,0,0,0,0,0,0,0,0,0,0,0,0,
0,0,0,0,0,0,0,0,0,0,0,0,0,0,80,0,0,
0,0,0,0,0,0,0,0,0,0,0,0,0,0,0,0,0,
0,0,0,0,0,0,0,0,82,0,0,0,0,77,0,0,0,
0,77,0,0,0,0,0,0,0,0,0,0,0,0,0,0,0,
0,0,0,0,0,77,0,0,0,0,0,0,0,0,0,0,0,
0,0,6,6,6,77,0,0,0,0,0,0,0,0,0,0,0
</data>
 </layer>
 <objectgroup id="5" name="object">
  <object id="1" x="224" y="32" width="32" height="32">
   <properties>
    <property name="amount" type="int" value="2"/>
    <property name="event" value="treasure"/>
    <property name="id" value="frozen_1"/>
    <property name="item" value="4"/>
    <property name="one_time" type="bool" value="true"/>
   </properties>
  </object>
  <object id="2" x="256" y="416" width="32" height="32">
   <properties>
    <property name="event" value="tele"/>
    <property name="id" value="frozen_2"/>
    <property name="map" value="unknown"/>
   </properties>
  </object>
 </objectgroup>
</map>
