<?xml version="1.0" encoding="UTF-8"?>
<map version="1.10" tiledversion="1.11.2" orientation="isometric" renderorder="right-down" width="42" height="42" tilewidth="64" tileheight="32" infinite="0" nextlayerid="12" nextobjectid="76">
 <tileset firstgid="1" name="freetileset" tilewidth="64" tileheight="64" tilecount="20" columns="5">
  <image source="tiles/freetileset.png" trans="ff00ff" width="320" height="256"/>
  <tile id="0">
   <properties>
    <property name="walkable" type="bool" value="false"/>
   </properties>
  </tile>
 </tileset>
 <tileset firstgid="21" name="bonfire" tilewidth="78" tileheight="95" tilecount="1" columns="1">
  <tileoffset x="-5" y="-10"/>
  <image source="tiles/free isometric tileset for prototyping/bonfire.png" trans="ff00ff" width="78" height="95"/>
 </tileset>
 <tileset firstgid="22" name="artesian well" tilewidth="77" tileheight="93" tilecount="1" columns="1">
  <image source="tiles/main/artesian well.png" trans="ff00ff" width="77" height="93"/>
 </tileset>
 <tileset firstgid="23" name="tree2" tilewidth="69" tileheight="106" tilecount="1" columns="1">
  <image source="tiles/main/tree2.png" trans="ff00ff" width="69" height="106"/>
 </tileset>
 <tileset firstgid="24" name="Tree" tilewidth="76" tileheight="108" tilecount="1" columns="1">
  <image source="tiles/main/Tree.png" trans="ff00ff" width="76" height="108"/>
 </tileset>
 <tileset firstgid="25" name="house1" tilewidth="165" tileheight="212" tilecount="1" columns="1">
  <tileoffset x="14" y="-4"/>
  <image source="tiles/main/house1.png" trans="ff00ff" width="165" height="212"/>
 </tileset>
 <tileset firstgid="26" name="house2" tilewidth="167" tileheight="215" tilecount="1" columns="1">
  <tileoffset x="0" y="15"/>
  <image source="tiles/main/house2.png" trans="ff00ff" width="167" height="215"/>
 </tileset>
 <tileset firstgid="27" name="house3" tilewidth="139" tileheight="175" tilecount="1" columns="1">
  <tileoffset x="0" y="14"/>
  <image source="tiles/main/house3.png" trans="ff00ff" width="139" height="175"/>
 </tileset>
 <tileset firstgid="28" name="water fontain" tilewidth="93" tileheight="100" tilecount="1" columns="1">
  <tileoffset x="0" y="15"/>
  <image source="tiles/main/water fontain.png" trans="ff00ff" width="93" height="100"/>
 </tileset>
 <tileset firstgid="29" name="flower" tilewidth="40" tileheight="40" tilecount="1" columns="1">
  <image source="tiles/main/flower.png" trans="ff00ff" width="40" height="40"/>
 </tileset>
 <tileset firstgid="30" name="chess" tilewidth="40" tileheight="43" tilecount="1" columns="1">
  <image source="tiles/main/chess.png" trans="ff00ff" width="40" height="43"/>
 </tileset>
 <tileset firstgid="31" name="plane" tilewidth="64" tileheight="32" tilecount="1" columns="1">
  <properties>
   <property name="walkable" type="bool" value="false"/>
  </properties>
  <image source="tiles/main/plane.png" trans="ff00ff" width="64" height="32"/>
 </tileset>
 <tileset firstgid="32" name="rock" tilewidth="40" tileheight="35" tilecount="1" columns="1">
  <image source="tiles/main/rock.png" trans="ff00ff" width="40" height="35"/>
 </tileset>
 <tileset firstgid="33" name="sign" tilewidth="40" tileheight="57" tilecount="1" columns="1">
  <image source="tiles/main/sign.png" trans="ff00ff" width="40" height="57"/>
 </tileset>
 <tileset firstgid="34" name="sign2" tilewidth="42" tileheight="49" tilecount="1" columns="1">
  <image source="tiles/main/sign2.png" trans="ff00ff" width="42" height="49"/>
 </tileset>
 <tileset firstgid="35" name="wood" tilewidth="60" tileheight="40" tilecount="1" columns="1">
  <image source="tiles/main/wood.png" trans="ff00ff" width="60" height="40"/>
 </tileset>
 <tileset firstgid="36" name="rom" tilewidth="40" tileheight="46" tilecount="1" columns="1">
  <image source="tiles/main/rom.png" trans="ff00ff" width="40" height="46"/>
 </tileset>
 <tileset firstgid="37" name="flower2" tilewidth="30" tileheight="30" tilecount="1" columns="1">
  <tileoffset x="20" y="-5"/>
  <image source="tiles/main/flower2.png" trans="ff00ff" width="30" height="30"/>
 </tileset>
 <tileset firstgid="38" name="hugh_tree" tilewidth="670" tileheight="697" tilecount="1" columns="1">
  <image source="tiles/main/hugh_tree.png" trans="ff00ff" width="670" height="697"/>
 </tileset>
 <tileset firstgid="39" name="barrier" tilewidth="44" tileheight="41" tilecount="1" columns="1">
  <image source="tiles/main/barrier.png" trans="ff00ff" width="44" height="41"/>
 </tileset>
 <tileset firstgid="40" name="house4" tilewidth="146" tileheight="275" tilecount="1" columns="1">
  <image source="tiles/main/house4.png" trans="ff00ff" width="146" height="275"/>
 </tileset>
 <tileset firstgid="41" name="barrel_N" tilewidth="30" tileheight="41" tilecount="1" columns="1">
  <image source="tiles/main/barrel_N.png" trans="ff00ff" width="30" height="41"/>
 </tileset>
 <tileset firstgid="42" name="lamppost" tilewidth="29" tileheight="78" tilecount="1" columns="1">
  <image source="tiles/main/lamppost.png" trans="ff00ff" width="29" height="78"/>
 </tileset>
 <tileset firstgid="43" name="barrier2" tilewidth="44" tileheight="41" tilecount="1" columns="1">
  <image source="tiles/main/barrier2.png" trans="ff00ff" width="44" height="41"/>
 </tileset>
 <tileset firstgid="44" name="wood2" tilewidth="77" tileheight="80" tilecount="1" columns="1">
  <image source="tiles/main/wood2.png" trans="ff00ff" width="77" height="80"/>
 </tileset>
 <tileset firstgid="45" name="wood3" tilewidth="108" tileheight="70" tilecount="1" columns="1">
  <image source="tiles/main/wood3.png" trans="ff00ff" width="108" height="70"/>
 </tileset>
 <tileset firstgid="46" name="dirt_W" tilewidth="64" tileheight="32" tilecount="1" columns="1">
  <properties>
   <property name="walkable" type="bool" value="false"/>
  </properties>
  <image source="tiles/dirt_W.png" trans="ff00ff" width="64" height="32"/>
 </tileset>
 <tileset firstgid="47" name="house5" tilewidth="183" tileheight="230" tilecount="1" columns="1">
  <image source="tiles/main/house5.png" trans="ff00ff" width="183" height="230"/>
 </tileset>
 <tileset firstgid="48" name="cart" tilewidth="119" tileheight="100" tilecount="1" columns="1">
  <image source="tiles/main/cart.png" trans="ff00ff" width="119" height="100"/>
 </tileset>
 <tileset firstgid="49" name="cart2" tilewidth="331" tileheight="200" tilecount="1" columns="1">
  <tileoffset x="0" y="15"/>
  <image source="tiles/main/cart2.png" trans="ff00ff" width="331" height="200"/>
 </tileset>
 <layer id="10" name="terrain_layer" width="42" height="42">
  <data encoding="csv">
46,46,46,46,46,46,46,46,46,46,46,46,46,46,46,46,46,46,46,46,46,46,46,46,46,46,46,46,46,46,46,46,46,46,46,46,46,46,46,46,46,46,
0,46,46,46,46,46,46,46,46,46,46,46,46,46,46,46,46,46,46,46,46,46,46,46,46,46,46,46,46,46,46,46,46,46,46,46,46,46,46,46,46,46,
46,46,46,46,46,46,46,46,46,46,46,46,0,0,0,46,46,46,46,46,46,46,46,46,0,0,0,0,0,0,0,0,46,46,46,46,46,46,46,46,46,46,
46,46,46,46,46,46,46,46,46,46,46,46,0,0,0,0,0,46,46,46,46,46,46,0,0,0,0,0,0,0,0,0,0,0,46,46,46,46,46,46,46,46,
46,46,46,46,46,46,46,46,46,46,46,46,0,0,0,0,0,0,46,46,46,46,46,0,0,0,0,0,0,0,0,0,0,0,46,46,46,46,46,46,46,46,
46,46,46,46,46,46,46,46,46,46,46,0,0,0,0,0,0,0,46,46,46,46,46,0,0,0,0,0,0,0,0,0,0,0,0,46,46,46,46,46,46,46,
46,46,46,46,46,46,46,46,46,46,46,0,0,0,0,0,0,0,0,0,46,46,46,0,0,0,0,0,0,0,0,0,0,0,0,46,46,46,46,46,46,46,
46,46,46,46,46,46,46,46,46,46,0,0,0,0,0,0,0,0,0,46,46,46,46,0,0,0,0,0,0,0,0,0,0,0,0,46,46,46,46,46,46,46,
46,46,46,46,46,46,46,46,46,46,0,0,0,0,0,0,0,0,0,46,46,46,46,46,0,0,0,0,0,0,0,0,0,0,0,46,46,46,46,46,46,46,
46,46,46,46,46,46,46,46,46,0,0,0,0,0,0,0,0,0,0,46,46,46,46,46,46,0,0,0,0,0,0,0,0,0,0,46,46,46,46,46,46,46,
46,46,46,46,46,46,0,0,0,0,0,0,0,0,0,0,0,0,0,46,46,46,46,46,46,46,0,0,0,0,0,0,0,0,46,46,46,46,46,46,46,46,
46,46,46,46,46,46,0,0,0,0,0,0,0,0,0,0,0,0,0,46,46,46,46,46,46,46,46,0,0,0,0,0,0,46,46,46,46,46,46,46,46,46,
46,46,46,46,46,46,46,0,0,0,0,0,0,0,0,0,0,0,0,46,46,46,46,46,46,46,46,46,0,0,0,0,0,46,46,46,46,46,46,46,46,46,
46,46,46,46,46,46,46,0,0,0,0,0,0,0,0,0,0,0,0,46,46,46,46,46,46,46,46,46,0,0,0,0,0,46,46,46,46,46,46,46,46,46,
46,46,46,46,46,46,0,0,0,0,0,0,0,0,0,0,0,0,0,46,46,46,46,46,46,46,46,46,46,0,0,46,46,46,46,46,46,46,46,46,46,46,
46,46,46,46,46,46,0,0,0,0,0,0,0,0,0,0,0,0,46,46,46,46,46,46,46,46,46,0,0,0,0,46,46,46,46,46,46,46,46,46,46,46,
46,46,46,46,46,46,0,0,0,0,0,0,0,0,0,0,0,0,46,46,46,46,46,46,46,46,46,46,0,0,46,46,46,46,46,46,46,46,46,46,46,46,
46,46,46,46,46,46,0,46,0,0,0,0,0,0,0,0,0,46,46,46,46,46,46,46,46,46,46,46,46,0,46,46,46,46,46,46,46,46,46,46,46,46,
46,46,46,46,46,46,0,0,0,0,0,0,0,0,0,0,46,46,46,46,46,46,46,46,46,46,46,46,46,0,46,46,46,46,46,46,46,46,46,46,46,46,
46,46,46,46,46,46,46,0,0,0,0,0,0,0,0,46,46,46,46,46,46,46,46,46,46,46,46,0,0,0,46,46,46,46,46,46,46,46,46,46,46,46,
46,46,46,46,46,46,46,46,46,0,0,0,0,46,46,46,46,46,46,46,46,46,46,46,46,46,46,46,0,0,46,46,46,46,46,46,46,46,46,46,46,46,
46,46,46,46,46,46,46,46,46,46,46,46,46,46,46,46,46,46,46,46,46,46,46,46,46,46,46,46,0,0,46,46,46,46,46,0,46,46,46,46,46,46,
46,46,46,46,46,46,46,46,46,46,46,46,46,46,46,46,46,46,46,46,46,46,46,46,46,46,46,46,46,0,0,0,0,0,0,0,0,0,0,0,0,0,
46,46,46,46,46,46,46,46,46,46,46,46,46,46,46,46,46,46,46,46,46,46,46,0,0,0,0,0,0,0,46,46,46,46,46,46,46,0,0,46,46,46,
46,46,46,46,46,46,46,46,46,46,46,46,46,46,46,46,46,46,46,46,46,46,46,46,46,46,46,46,46,46,46,46,46,46,46,46,46,0,46,46,46,46,
46,46,46,46,46,46,46,46,46,46,46,46,46,46,46,46,46,46,46,46,46,46,46,46,46,46,46,46,46,46,46,46,46,46,46,46,46,0,0,0,46,46,
46,46,46,46,46,46,46,46,46,46,46,46,46,46,46,46,46,46,46,46,46,46,46,46,46,46,46,46,46,46,46,0,0,0,0,0,0,0,0,0,46,46,
46,46,46,46,46,46,46,46,46,46,46,46,46,46,46,46,46,46,46,46,46,46,46,46,46,46,46,46,46,46,46,0,46,46,46,46,46,46,46,46,46,46,
46,46,46,46,46,46,46,46,46,46,46,46,46,46,46,46,46,46,46,46,46,46,46,46,46,46,46,46,46,46,46,0,46,46,46,46,46,0,46,46,46,46,
46,46,46,46,46,46,46,46,46,46,0,0,0,46,46,46,46,46,46,46,46,46,46,46,46,46,46,46,46,46,46,0,46,46,46,46,46,46,46,46,46,46,
46,46,46,46,46,46,46,46,46,46,46,0,0,46,46,46,46,46,46,46,46,46,46,46,46,46,46,46,46,46,0,0,46,46,46,46,46,46,46,46,46,46,
46,46,46,46,46,46,46,46,46,46,46,0,0,46,46,46,46,46,46,46,46,46,0,46,46,46,46,46,0,0,0,0,46,46,46,46,46,46,46,46,46,46,
46,46,46,46,0,0,0,0,0,0,0,0,0,46,46,46,46,46,46,46,46,46,0,0,0,0,0,0,0,0,0,0,46,46,46,46,46,46,46,46,46,46,
46,46,46,46,46,46,46,46,46,46,46,0,0,46,46,46,46,46,46,46,46,46,46,46,46,46,0,0,0,0,0,0,46,46,46,46,46,46,46,46,46,46,
46,46,46,46,46,46,46,46,46,46,46,0,0,46,46,46,46,46,46,46,46,46,46,46,46,46,46,46,0,0,0,0,46,46,46,46,46,46,46,46,46,46,
46,46,46,46,46,46,46,46,46,46,46,46,0,46,46,46,46,46,46,46,46,46,46,46,46,46,46,46,0,0,0,0,46,46,46,46,46,46,46,46,46,46,
46,46,46,46,46,46,46,46,46,46,46,46,46,46,46,46,46,46,46,46,46,46,46,46,46,46,46,46,0,0,0,0,0,46,46,46,46,46,46,46,46,46,
46,46,46,46,46,46,46,46,46,46,46,46,46,46,46,46,46,46,46,46,46,46,46,46,46,46,46,46,46,46,46,0,0,46,46,46,46,46,46,46,46,46,
46,46,46,46,46,46,46,46,46,46,46,46,46,46,46,46,46,46,46,46,46,46,46,46,0,0,0,0,0,0,0,0,0,0,0,0,0,0,0,46,46,46,
46,46,46,46,46,46,46,46,46,46,46,46,46,46,46,46,46,46,46,46,46,46,46,46,0,0,0,0,0,0,0,0,0,0,0,0,0,0,0,46,46,46,
46,46,46,46,46,46,46,46,46,46,46,46,46,46,46,46,46,46,46,46,46,46,46,46,0,0,0,0,0,0,0,0,0,0,0,0,0,0,0,46,46,46,
46,46,46,46,46,46,46,46,46,46,46,46,46,46,46,46,46,46,46,46,46,46,46,46,0,0,0,0,0,0,0,0,0,0,0,0,0,0,0,0,46,46
</data>
 </layer>
 <layer id="1" name="ground_layer" width="42" height="42" offsetx="0" offsety="32">
  <data encoding="csv">
6,6,6,6,6,6,6,6,6,6,6,6,6,6,6,6,6,6,6,16,16,16,16,6,16,7,7,7,16,16,7,7,7,6,6,6,6,6,6,6,6,6,
6,6,6,6,6,6,6,6,6,6,6,6,6,6,6,6,6,6,6,16,16,16,7,7,7,7,7,7,7,7,7,7,7,6,6,6,6,6,6,6,6,6,
6,6,6,6,6,6,6,6,6,6,6,6,6,6,6,6,6,6,6,16,16,16,7,7,7,7,7,7,7,7,7,7,7,16,6,6,6,6,6,6,6,6,
6,6,6,6,6,6,6,6,6,6,6,6,6,6,6,6,6,6,6,16,16,7,7,7,7,7,7,7,7,7,7,7,7,16,6,6,6,6,6,6,6,6,
6,6,6,6,6,6,6,6,6,6,6,6,6,6,6,6,6,6,6,16,16,7,6,7,7,7,7,7,7,7,7,7,7,16,16,6,6,6,6,6,6,6,
6,6,6,6,6,6,6,6,6,6,6,6,6,6,6,6,6,6,6,16,16,16,7,7,7,7,7,7,7,7,7,7,7,7,16,6,6,6,6,6,6,6,
6,6,6,6,6,6,6,6,6,6,6,6,6,6,6,6,6,6,6,16,16,16,7,7,7,7,7,7,7,7,7,7,7,7,16,6,6,6,6,6,6,6,
6,6,6,6,6,6,6,6,6,6,6,6,6,6,6,6,6,6,6,16,16,16,7,7,7,7,7,7,7,7,7,7,7,7,16,16,6,6,6,6,6,6,
6,6,6,6,6,6,6,6,6,6,6,6,6,6,6,6,6,6,6,6,16,16,16,7,7,7,7,7,7,7,7,7,7,7,16,6,6,6,6,6,6,6,
6,6,6,6,6,6,6,6,6,6,6,6,6,6,6,6,6,6,6,6,6,16,16,6,7,7,7,7,7,7,7,7,7,16,16,6,6,6,6,6,6,6,
6,6,6,6,6,6,6,6,6,6,6,6,6,6,6,6,6,6,6,6,6,6,16,16,16,7,7,7,7,7,7,6,16,16,6,6,6,6,6,6,6,6,
6,6,6,6,6,6,6,6,6,6,6,6,6,6,6,6,6,6,6,6,6,6,6,6,6,16,16,16,7,7,7,16,16,16,6,6,6,6,6,6,6,6,
6,6,6,6,6,6,6,6,6,6,6,6,6,6,6,6,6,6,6,6,6,6,6,6,6,6,16,16,16,7,7,16,6,6,6,6,6,6,6,6,6,6,
6,6,6,6,6,6,6,6,6,6,6,6,6,6,6,6,6,6,6,6,6,6,6,6,6,6,6,16,16,7,7,16,6,6,6,6,6,6,6,6,6,6,
6,6,6,6,6,6,6,6,6,6,6,6,6,6,6,6,6,6,6,6,6,6,6,6,7,6,6,6,6,6,6,6,6,6,6,6,6,6,6,6,6,6,
6,6,6,6,6,6,6,6,6,6,6,6,6,6,6,6,6,6,6,6,6,6,6,6,6,6,6,6,6,6,6,6,6,6,6,6,6,6,6,6,6,6,
6,6,6,6,6,6,6,6,6,6,6,6,6,6,6,6,6,6,6,6,6,6,6,6,6,6,6,7,6,6,6,6,6,6,6,6,6,6,6,6,6,6,
6,6,6,6,6,6,6,6,6,6,6,6,6,6,6,6,6,6,6,6,6,6,6,6,6,6,6,6,6,6,6,6,6,6,6,6,6,6,6,6,6,6,
6,6,6,6,6,6,6,6,6,6,6,6,6,6,6,6,6,6,6,6,6,6,6,6,6,6,6,6,6,6,6,6,6,6,6,6,6,6,6,6,6,6,
6,6,6,6,6,6,6,6,6,6,6,6,6,6,6,6,6,6,6,6,6,6,6,6,6,6,6,6,6,6,6,6,6,6,6,6,6,6,6,6,6,6,
6,6,6,6,6,6,6,6,6,6,6,6,6,6,6,6,6,6,6,6,6,6,6,6,6,6,7,6,6,6,6,6,6,6,6,6,6,6,6,6,6,6,
6,6,6,6,6,6,6,6,6,6,6,6,6,6,6,6,6,6,6,6,6,7,6,6,6,6,7,6,6,6,6,6,6,6,6,6,6,6,6,6,6,6,
6,6,6,6,6,6,6,6,6,6,6,6,6,6,6,6,6,6,6,6,6,6,6,7,6,6,7,6,6,6,6,6,7,6,6,6,6,6,16,16,16,6,
6,6,6,6,6,6,6,6,6,6,6,6,6,6,6,6,6,6,6,6,6,6,6,6,7,6,6,7,6,6,7,6,6,6,7,6,6,7,7,16,16,16,
6,6,6,6,6,6,6,6,6,6,6,6,6,6,6,6,6,6,6,6,6,6,6,6,6,6,6,6,6,6,6,6,7,6,6,6,6,7,7,6,6,6,
6,6,6,6,6,6,6,6,6,6,6,6,6,6,6,6,6,6,6,6,6,6,10,7,6,6,6,6,6,6,6,6,6,6,6,6,6,7,7,6,6,6,
6,6,6,6,20,20,20,6,6,6,6,6,6,6,6,6,6,6,7,6,6,6,7,6,6,6,6,6,6,6,6,6,6,6,6,6,6,6,7,16,16,16,
6,6,6,20,20,20,20,6,6,6,6,6,6,6,6,6,6,6,6,6,6,6,10,7,6,6,6,6,6,6,6,6,6,6,6,6,6,6,6,6,6,6,
6,6,6,20,20,20,20,20,6,6,6,6,6,6,6,6,6,6,6,6,6,6,6,6,6,6,6,6,6,6,6,6,6,6,6,6,6,6,6,6,6,6,
6,6,20,20,20,20,20,20,20,6,6,6,6,6,6,6,6,6,6,6,6,6,6,6,6,6,6,7,6,6,6,6,6,6,6,7,6,6,6,6,6,6,
6,6,20,20,20,20,20,20,20,20,6,6,6,6,6,6,6,6,6,6,6,6,6,6,6,6,6,6,7,6,6,6,6,7,20,6,6,6,6,6,6,6,
6,6,20,20,20,20,20,20,20,20,20,6,6,6,6,6,6,6,6,6,6,6,6,6,6,6,6,6,6,6,6,7,6,20,20,20,6,6,6,6,6,6,
6,6,20,20,19,19,19,19,19,19,19,6,6,6,6,6,6,6,6,6,6,6,7,6,6,6,6,6,7,6,6,6,6,20,20,20,20,6,6,6,6,6,
6,6,20,20,20,20,20,20,20,20,20,6,6,6,6,6,6,6,6,6,6,7,6,6,6,6,6,6,6,6,6,6,6,20,20,20,7,6,6,6,6,6,
6,6,20,20,20,20,20,20,20,20,20,6,6,6,6,6,6,6,6,6,6,6,6,7,6,6,6,6,7,6,6,6,6,6,20,6,6,6,6,6,6,6,
6,6,20,20,20,20,20,20,20,20,17,17,6,6,6,6,6,6,6,6,6,6,6,6,6,7,6,6,6,6,6,6,6,6,6,6,6,6,6,6,6,6,
6,6,20,20,20,20,20,20,20,20,17,17,6,6,6,6,6,6,6,6,6,6,6,6,6,6,6,6,6,6,6,6,6,6,6,6,6,6,6,6,6,6,
6,6,20,20,20,20,20,20,6,6,6,6,6,6,6,6,6,6,6,6,6,6,6,6,6,6,6,6,6,6,6,6,6,6,6,6,6,6,6,6,6,6,
6,6,20,20,20,20,20,20,6,6,6,6,6,6,6,6,6,6,6,6,6,6,16,6,6,6,6,6,6,6,6,6,6,6,6,6,6,6,6,6,6,6,
6,6,6,6,6,6,6,6,6,6,6,6,6,6,6,6,6,6,6,6,6,6,6,6,6,6,6,6,6,6,6,6,6,6,6,6,6,6,6,6,6,6,
6,6,6,6,6,6,6,6,6,6,6,6,6,6,6,6,6,6,6,6,6,6,6,6,6,6,6,6,6,6,6,6,6,6,6,6,6,6,6,6,6,6,
6,6,6,6,6,6,6,6,6,6,6,6,6,6,6,6,6,6,6,6,6,6,6,6,6,6,6,6,6,6,6,6,6,6,6,6,6,6,6,6,6,6
</data>
 </layer>
 <layer id="9" name="layer3" width="42" height="42" offsetx="0" offsety="32">
  <data encoding="csv">
0,0,0,0,0,0,0,0,0,0,24,24,24,24,24,24,24,24,24,24,24,24,24,24,24,24,24,24,24,24,24,24,24,0,24,24,24,24,24,24,24,0,
0,0,0,0,0,0,0,0,0,0,0,0,0,0,24,24,24,24,24,24,24,24,24,24,0,0,0,0,0,0,0,24,24,24,24,24,24,24,24,24,24,0,
0,0,0,0,0,0,0,0,0,0,0,0,0,0,0,0,0,24,24,24,24,24,24,0,0,0,0,0,0,0,0,0,24,24,24,24,24,24,24,24,24,0,
0,0,0,0,0,0,0,0,0,0,0,0,0,0,0,0,0,24,24,24,24,24,0,0,0,0,0,2147483688,0,0,0,0,0,0,24,24,24,24,24,24,24,0,
0,0,0,0,0,0,0,0,0,0,0,0,0,0,0,0,0,0,0,24,24,24,0,0,0,0,0,0,0,0,0,0,0,0,0,24,24,24,24,24,24,0,
0,0,0,0,0,0,0,0,0,0,0,0,0,0,0,0,0,0,0,24,24,24,0,0,0,0,0,0,0,0,0,0,0,0,0,24,24,24,24,24,24,0,
0,0,0,0,0,0,0,0,0,0,0,0,0,0,0,0,0,0,0,24,24,24,0,0,0,0,0,0,0,0,0,0,0,0,0,0,24,24,24,24,24,0,
0,0,0,0,0,0,0,0,0,0,0,0,0,0,0,0,0,0,0,0,24,24,0,0,0,0,0,0,0,0,0,0,0,0,0,0,24,24,24,24,24,0,
0,0,0,0,0,0,0,0,0,0,0,0,0,0,0,0,0,0,0,0,24,24,24,0,0,0,0,0,0,0,0,0,0,0,0,0,24,0,24,24,24,0,
0,0,0,0,0,0,0,0,0,0,0,0,0,0,0,0,0,0,0,0,24,24,24,24,0,0,0,0,0,0,0,0,0,0,0,0,24,0,24,24,24,0,
23,0,0,0,0,0,0,0,0,0,0,0,0,0,0,0,0,0,0,0,24,24,0,24,24,0,0,0,0,0,0,0,0,0,0,0,24,0,24,24,24,0,
23,0,0,0,0,0,0,0,0,0,0,0,0,0,0,0,0,0,0,0,24,24,24,24,24,24,0,0,0,0,0,0,0,0,0,24,24,0,24,24,24,0,
23,0,0,38,0,0,0,0,0,0,0,0,0,0,0,0,0,0,0,0,24,24,24,24,24,24,24,0,0,34,0,0,0,24,24,24,24,24,24,24,24,0,
23,0,0,0,0,0,0,0,0,0,0,0,0,0,0,0,0,0,0,0,24,2147483687,2147483687,2147483687,2147483687,2147483687,2147483687,2147483687,0,0,2147483687,2147483687,2147483687,2147483687,2147483687,2147483687,2147483687,2147483687,2147483687,2147483687,2147483687,0,
23,0,0,0,0,0,0,0,0,0,0,0,0,0,0,0,0,0,0,0,24,0,0,0,29,29,0,0,31,31,0,0,0,0,0,0,0,0,0,0,0,0,
23,0,0,0,0,0,0,0,0,0,0,0,0,0,0,0,0,0,0,0,24,39,0,23,0,32,32,0,31,0,35,0,0,0,0,0,0,0,0,0,45,0,
23,0,0,0,0,0,0,0,0,0,0,0,0,0,0,0,0,0,0,24,24,39,0,0,0,0,0,42,31,0,35,41,0,24,0,0,24,0,0,0,0,0,
23,23,0,0,0,0,0,0,0,0,0,0,0,0,0,0,0,0,0,24,24,39,23,0,0,0,0,2147483685,31,0,0,0,0,0,0,24,0,0,0,24,0,0,
23,23,0,49,0,0,0,0,0,0,0,0,0,0,0,0,0,0,24,24,24,39,0,32,0,0,0,0,31,0,0,0,0,0,0,0,0,24,0,0,0,0,
23,23,23,0,0,0,0,0,0,0,0,0,0,0,0,0,0,24,24,0,24,39,23,0,0,0,0,0,31,39,0,24,0,0,0,0,0,36,36,0,0,0,
23,23,23,23,24,24,24,24,0,0,0,0,0,0,0,0,24,24,24,0,24,39,23,0,32,25,2147483685,2147483681,31,39,2147483687,2147483687,2147483687,2147483687,47,0,2147483687,36,36,0,24,0,
23,0,23,23,23,0,24,24,24,24,0,0,0,0,24,24,24,24,24,0,24,39,0,23,29,2147483685,29,0,31,31,31,31,31,31,31,31,31,31,31,31,31,0,
23,23,23,23,23,23,23,0,24,24,24,24,24,24,24,24,24,0,24,0,24,39,31,31,31,31,31,31,31,37,37,37,37,37,37,42,31,37,0,0,41,0,
23,0,23,23,23,23,23,23,23,23,23,24,24,24,24,24,0,24,24,0,24,32,29,41,2147483691,2147483691,2147483691,2147483691,0,41,37,37,37,37,37,0,31,37,0,0,0,0,
23,23,23,23,23,23,23,23,23,23,23,23,23,23,24,23,23,23,23,23,23,39,0,0,29,29,29,29,0,0,29,0,2147483687,2147483687,2147483687,2147483687,31,0,0,48,0,0,
23,23,23,23,23,23,32,23,23,23,23,23,23,23,23,23,23,23,23,23,23,39,0,0,0,41,29,29,0,22,31,31,31,31,31,31,31,0,0,0,0,0,
23,23,23,23,23,32,32,32,23,23,23,23,23,23,23,23,23,23,23,23,23,39,0,0,41,0,41,29,29,42,31,43,0,0,0,0,0,41,41,0,37,0,
23,23,23,32,32,0,0,32,23,23,23,23,23,23,23,23,23,23,23,23,23,39,0,0,0,0,0,0,0,29,31,43,28,0,0,0,0,0,0,0,37,0,
23,23,23,32,0,0,0,0,32,0,0,23,23,23,23,23,23,23,23,23,23,39,35,0,0,0,0,0,0,29,31,43,0,32,0,0,0,24,0,0,0,0,
23,23,32,0,0,0,0,0,0,0,0,0,23,23,23,23,23,23,23,23,23,39,35,0,45,0,0,0,0,0,31,0,32,0,32,0,0,0,0,24,24,0,
23,23,32,0,0,0,0,0,0,0,0,0,0,23,23,23,23,23,23,23,23,31,0,0,2147483687,2147483687,33,26,0,0,31,32,0,0,0,32,0,0,24,0,24,0,
23,23,32,2147483678,0,0,0,0,0,0,0,0,0,0,23,23,23,23,23,23,23,31,31,31,31,31,31,31,31,31,31,32,0,0,0,32,32,35,0,0,24,0,
23,23,32,0,0,0,0,0,0,0,0,0,0,0,23,23,23,23,23,23,23,39,2147483691,2147483691,0,0,0,0,0,0,31,32,32,0,32,32,0,0,0,0,24,0,
23,23,32,0,0,0,32,0,0,0,0,0,0,0,23,23,23,23,23,23,23,39,36,36,0,0,0,0,0,0,31,37,0,32,32,0,0,24,0,24,24,0,
23,23,32,32,0,0,0,0,0,0,0,0,0,0,23,23,23,23,23,23,23,39,41,36,0,0,0,0,0,0,31,37,0,0,0,0,0,24,0,24,24,0,
23,23,23,32,32,0,0,0,0,0,21,0,0,0,23,23,23,23,23,23,23,39,41,41,0,2147483675,0,0,0,42,31,0,37,35,0,24,24,24,24,24,24,0,
23,23,23,23,32,32,0,0,0,0,0,0,0,0,23,23,23,23,23,23,23,0,2147483687,2147483687,2147483687,2147483687,2147483687,2147483687,2147483687,2147483687,31,0,2147483687,2147483687,2147483687,2147483687,2147483687,2147483687,2147483687,2147483687,24,0,
23,23,23,23,23,32,32,0,0,0,0,0,0,23,23,23,23,23,23,23,23,23,23,0,0,0,0,0,0,0,31,0,0,0,0,0,0,0,24,24,24,0,
23,23,23,23,23,23,32,0,23,23,23,23,23,23,23,23,23,23,23,23,23,23,23,0,0,0,0,0,0,0,31,0,0,0,0,0,0,0,0,24,24,0,
23,23,23,23,23,23,23,0,0,23,23,23,23,23,23,23,23,23,23,23,0,23,23,0,0,0,0,0,0,0,31,0,0,0,0,0,0,0,0,24,24,0,
23,23,23,23,23,23,23,23,23,23,23,23,23,23,23,23,23,23,23,23,23,23,23,0,0,0,0,0,0,0,31,0,0,0,0,0,0,0,0,24,24,0,
0,0,0,0,0,0,0,0,0,0,0,0,0,0,0,0,0,0,0,0,0,0,0,0,0,0,0,0,0,0,0,0,0,0,0,0,0,0,0,0,0,0
</data>
 </layer>
 <objectgroup id="5" name="object">
  <object id="36" x="64" y="1344" width="32" height="32" visible="0">
   <properties>
    <property name="enemy" value="enemy_02"/>
    <property name="event" value="battle"/>
    <property name="health" value="2"/>
   </properties>
  </object>
  <object id="37" x="192" y="1440"/>
  <object id="38" x="64" y="1344"/>
  <object id="63" x="1120" y="672" width="32" height="32">
   <properties>
    <property name="event" value="tele"/>
    <property name="id" value="main_2"/>
    <property name="map" value="library"/>
   </properties>
  </object>
  <object id="66" x="896" y="992" width="32" height="32">
   <properties>
    <property name="event" value="tele"/>
    <property name="id" value="main_3"/>
    <property name="map" value="tavern"/>
   </properties>
  </object>
  <object id="67" x="896" y="128" width="32" height="32">
   <properties>
    <property name="event" value="tele"/>
    <property name="id" value="main_4"/>
    <property name="map" value="tower"/>
   </properties>
  </object>
  <object id="68" x="896" y="608" width="32" height="32">
   <properties>
    <property name="event" value="tele"/>
    <property name="id" value="main_6"/>
    <property name="map" value="unknown"/>
   </properties>
  </object>
  <object id="69" x="896" y="96" width="32" height="32">
   <properties>
    <property name="event" value="tele"/>
    <property name="id" value="main_5"/>
    <property name="map" value="tower"/>
   </properties>
  </object>
  <object id="70" x="352" y="1088" width="32" height="32">
   <properties>
    <property name="event" value="tele"/>
    <property name="id" value="main_7"/>
    <property name="map" value="unknown"/>
   </properties>
  </object>
  <object id="71" x="128" y="1024" width="32" height="32">
   <properties>
    <property name="amount" type="int" value="2"/>
    <property name="event" value="treasure"/>
    <property name="id" value="main_8"/>
    <property name="item" value="4"/>
    <property name="one_time" type="bool" value="true"/>
   </properties>
  </object>
  <object id="72" x="896" y="1120" width="32" height="32">
   <properties>
    <property name="event" value="rest"/>
    <property name="id" value="main_9"/>
   </properties>
  </object>
  <object id="73" x="352" y="1184"/>
  <object id="75" x="960" y="960" width="32" height="32">
   <properties>
    <property name="event" value="tele"/>
    <property name="id" value="main_14"/>
    <property name="map" value="tavern"/>
   </properties>
  </object>
 </objectgroup>
</map>
