<?xml version="1.0" encoding="UTF-8"?>
<map version="1.10" tiledversion="1.11.2" orientation="isometric" renderorder="right-down" width="30" height="36" tilewidth="64" tileheight="32" infinite="0" nextlayerid="17" nextobjectid="77">
 <tileset firstgid="1" name="freetileset" tilewidth="64" tileheight="64" tilecount="20" columns="5">
  <image source="tiles/freetileset.png" trans="ff00ff" width="320" height="256"/>
  <tile id="0">
   <properties>
    <property name="walkable" type="bool" value="false"/>
   </properties>
  </tile>
 </tileset>
 <tileset firstgid="21" name="bonfire" tilewidth="78" tileheight="95" tilecount="1" columns="1">
  <tileoffset x="-5" y="-10"/>
  <image source="tiles/free isometric tileset for prototyping/bonfire.png" trans="ff00ff" width="78" height="95"/>
 </tileset>
 <tileset firstgid="22" name="artesian well" tilewidth="77" tileheight="93" tilecount="1" columns="1">
  <image source="tiles/main/artesian well.png" trans="ff00ff" width="77" height="93"/>
 </tileset>
 <tileset firstgid="23" name="Tree" tilewidth="76" tileheight="108" tilecount="1" columns="1">
  <image source="tiles/main/Tree.png" trans="ff00ff" width="76" height="108"/>
 </tileset>
 <tileset firstgid="24" name="house1" tilewidth="165" tileheight="212" tilecount="1" columns="1">
  <tileoffset x="14" y="-4"/>
  <image source="tiles/main/house1.png" trans="ff00ff" width="165" height="212"/>
 </tileset>
 <tileset firstgid="25" name="house2" tilewidth="167" tileheight="215" tilecount="1" columns="1">
  <tileoffset x="15" y="15"/>
  <image source="tiles/main/house2.png" trans="ff00ff" width="167" height="215"/>
 </tileset>
 <tileset firstgid="26" name="house3" tilewidth="139" tileheight="175" tilecount="1" columns="1">
  <image source="tiles/main/house3.png" trans="ff00ff" width="139" height="175"/>
 </tileset>
 <tileset firstgid="27" name="flower" tilewidth="40" tileheight="40" tilecount="1" columns="1">
  <image source="tiles/main/flower.png" trans="ff00ff" width="40" height="40"/>
 </tileset>
 <tileset firstgid="28" name="chess" tilewidth="40" tileheight="43" tilecount="1" columns="1">
  <image source="tiles/main/chess.png" trans="ff00ff" width="40" height="43"/>
 </tileset>
 <tileset firstgid="29" name="rock" tilewidth="40" tileheight="35" tilecount="1" columns="1">
  <properties>
   <property name="walkable" type="bool" value="false"/>
  </properties>
  <image source="tiles/main/rock.png" trans="ff00ff" width="40" height="35"/>
 </tileset>
 <tileset firstgid="30" name="sign" tilewidth="40" tileheight="57" tilecount="1" columns="1">
  <image source="tiles/main/sign.png" trans="ff00ff" width="40" height="57"/>
 </tileset>
 <tileset firstgid="31" name="wood" tilewidth="60" tileheight="40" tilecount="1" columns="1">
  <image source="tiles/main/wood.png" trans="ff00ff" width="60" height="40"/>
 </tileset>
 <tileset firstgid="32" name="rom" tilewidth="40" tileheight="46" tilecount="1" columns="1">
  <image source="tiles/main/rom.png" trans="ff00ff" width="40" height="46"/>
 </tileset>
 <tileset firstgid="33" name="barrier" tilewidth="44" tileheight="41" tilecount="1" columns="1">
  <image source="tiles/main/barrier.png" trans="ff00ff" width="44" height="41"/>
 </tileset>
 <tileset firstgid="34" name="house4" tilewidth="146" tileheight="275" tilecount="1" columns="1">
  <image source="tiles/main/house4.png" trans="ff00ff" width="146" height="275"/>
 </tileset>
 <tileset firstgid="35" name="barrel_N" tilewidth="30" tileheight="41" tilecount="1" columns="1">
  <image source="tiles/main/barrel_N.png" trans="ff00ff" width="30" height="41"/>
 </tileset>
 <tileset firstgid="36" name="lamppost" tilewidth="29" tileheight="78" tilecount="1" columns="1">
  <tileoffset x="15" y="-15"/>
  <image source="tiles/main/lamppost.png" trans="ff00ff" width="29" height="78"/>
 </tileset>
 <tileset firstgid="37" name="barrier2" tilewidth="44" tileheight="41" tilecount="1" columns="1">
  <image source="tiles/main/barrier2.png" trans="ff00ff" width="44" height="41"/>
 </tileset>
 <tileset firstgid="38" name="house5" tilewidth="183" tileheight="230" tilecount="1" columns="1">
  <image source="tiles/main/house5.png" trans="ff00ff" width="183" height="230"/>
 </tileset>
 <tileset firstgid="39" name="cart" tilewidth="119" tileheight="100" tilecount="1" columns="1">
  <image source="tiles/main/cart.png" trans="ff00ff" width="119" height="100"/>
 </tileset>
 <tileset firstgid="40" name="cart2" tilewidth="331" tileheight="200" tilecount="1" columns="1">
  <tileoffset x="0" y="15"/>
  <image source="tiles/main/cart2.png" trans="ff00ff" width="331" height="200"/>
 </tileset>
 <tileset firstgid="41" name="Tiles_Simple_Plains2" tilewidth="64" tileheight="32" tilecount="204" columns="4">
  <image source="tiles/Tiles_Simple_Plains2.png" trans="ff00ff" width="256" height="1632"/>
  <tile id="36">
   <animation>
    <frame tileid="36" duration="600"/>
    <frame tileid="39" duration="600"/>
   </animation>
  </tile>
  <tile id="182">
   <animation>
    <frame tileid="182" duration="600"/>
    <frame tileid="180" duration="500"/>
    <frame tileid="188" duration="600"/>
   </animation>
  </tile>
  <tile id="183">
   <animation>
    <frame tileid="183" duration="600"/>
    <frame tileid="181" duration="500"/>
    <frame tileid="180" duration="500"/>
   </animation>
  </tile>
  <tile id="188">
   <animation>
    <frame tileid="188" duration="800"/>
    <frame tileid="180" duration="600"/>
    <frame tileid="182" duration="600"/>
   </animation>
  </tile>
  <tile id="189">
   <animation>
    <frame tileid="183" duration="170"/>
    <frame tileid="180" duration="600"/>
    <frame tileid="189" duration="600"/>
   </animation>
  </tile>
 </tileset>
 <tileset firstgid="245" name="MeadowSpriteSheet2" tilewidth="64" tileheight="62" tilecount="8" columns="8">
  <image source="tiles/MeadowSpriteSheet2.png" trans="ff00ff" width="512" height="62"/>
  <tile id="0">
   <animation>
    <frame tileid="0" duration="600"/>
    <frame tileid="1" duration="600"/>
   </animation>
  </tile>
  <tile id="2">
   <animation>
    <frame tileid="2" duration="500"/>
    <frame tileid="3" duration="500"/>
    <frame tileid="4" duration="500"/>
   </animation>
  </tile>
 </tileset>
 <layer id="15" name="terrain_layer" width="30" height="36">
  <data encoding="csv">
0,0,0,0,0,0,0,0,0,0,0,0,0,0,0,0,0,0,0,0,0,0,0,0,0,0,0,0,0,0,
0,0,0,0,0,0,0,0,0,0,0,0,0,0,0,0,0,0,0,0,0,0,0,0,0,0,0,0,0,0,
0,0,0,0,0,0,0,0,0,0,0,0,0,0,0,0,0,0,0,0,0,0,0,0,0,0,0,0,0,0,
29,29,29,29,29,29,29,29,29,29,29,29,29,29,29,29,29,29,29,29,29,29,29,29,29,29,29,29,29,29,
29,29,29,29,29,0,0,29,29,29,29,29,29,29,29,29,29,29,29,29,29,29,29,29,29,29,29,29,29,29,
29,29,29,29,0,0,0,29,29,29,0,29,29,29,29,0,29,29,29,29,29,29,0,29,29,29,29,29,29,29,
29,29,29,0,0,0,0,0,29,0,0,0,29,29,29,0,29,29,29,29,29,29,29,29,29,29,29,29,0,29,
29,29,29,0,0,0,0,0,29,29,0,29,0,0,0,0,0,29,29,29,29,29,29,29,29,29,0,0,0,29,
29,29,29,0,29,0,0,0,0,29,0,0,0,0,0,0,0,0,29,0,29,29,29,29,29,29,0,0,0,0,
29,29,29,0,0,0,0,0,0,29,29,0,0,0,0,0,0,0,0,0,0,0,29,0,0,0,0,0,0,0,
29,29,29,0,0,0,0,0,0,29,29,0,0,0,0,29,29,0,0,0,0,0,0,0,0,0,0,0,0,0,
29,29,0,0,0,0,0,0,0,0,0,29,29,0,0,29,29,29,29,0,0,0,0,0,0,0,0,0,0,0,
29,29,0,0,0,0,0,0,0,0,29,29,29,0,0,29,29,29,29,29,0,0,0,0,0,0,0,0,0,0,
29,0,0,0,0,0,0,0,29,29,29,29,0,0,0,0,29,29,29,29,29,29,0,0,0,0,0,0,0,0,
0,0,0,0,0,0,0,0,29,29,29,0,0,0,0,0,0,29,29,29,29,29,0,0,0,0,0,0,0,0,
29,29,29,0,0,29,29,29,29,29,29,0,0,0,0,0,0,0,29,29,29,29,29,0,0,0,29,29,29,29,
29,29,29,0,0,29,29,29,29,29,29,0,0,0,0,0,0,0,0,29,29,29,29,0,0,0,29,29,29,29,
29,29,0,0,0,0,29,29,29,29,29,0,0,0,0,0,0,0,0,29,29,29,29,0,0,0,0,29,29,29,
29,29,29,0,0,0,0,29,29,29,29,0,0,0,0,0,0,0,0,0,29,29,29,0,0,0,0,0,29,29,
29,0,29,29,0,0,0,0,29,29,29,0,0,0,0,0,0,0,0,29,29,29,0,0,0,0,0,0,0,0,
29,29,29,29,0,0,0,0,0,0,0,0,0,29,29,0,0,0,29,29,29,29,0,0,0,0,0,0,0,0,
29,29,29,29,0,0,0,0,0,0,0,0,0,29,29,29,29,29,29,29,29,29,0,0,29,29,29,0,0,0,
29,29,29,29,0,0,0,0,0,29,29,29,29,29,29,29,29,29,29,29,29,29,0,0,29,29,29,29,0,0,
29,29,29,0,0,0,0,0,0,0,29,29,29,29,29,29,29,29,29,29,29,0,0,0,29,29,29,29,29,0,
29,0,0,0,0,0,0,0,0,0,0,29,29,29,29,29,29,29,0,29,29,0,0,0,0,29,29,29,29,29,
29,0,0,0,0,0,0,0,0,0,0,29,29,29,29,29,29,29,0,0,0,0,0,0,0,0,29,29,29,29,
29,0,0,0,0,0,0,0,0,0,0,0,29,0,29,29,29,29,0,0,0,0,0,0,0,0,29,29,29,29,
29,29,29,0,0,0,0,0,0,0,0,0,0,0,0,29,29,29,0,0,0,0,0,0,0,0,29,29,29,29,
29,29,29,29,0,0,0,0,0,0,0,0,0,0,0,0,0,0,0,0,0,0,0,0,0,0,29,29,29,29,
29,29,29,29,29,0,0,0,0,0,0,0,0,0,0,0,0,0,0,0,0,0,0,0,0,29,29,29,29,29,
29,29,29,29,29,0,0,0,0,0,0,0,0,0,0,0,0,0,0,0,0,0,0,0,0,29,29,29,0,0,
29,29,29,29,29,0,0,0,0,0,0,0,0,0,0,0,0,0,0,0,0,0,0,0,0,0,0,0,0,0,
29,29,29,29,29,29,0,0,0,0,0,0,0,0,0,29,29,29,29,29,29,29,29,0,0,0,0,0,0,0,
29,29,29,29,29,29,29,29,29,29,29,29,29,29,29,29,29,29,29,29,29,29,29,29,29,29,29,29,29,29,
29,29,29,29,29,29,29,29,29,29,29,29,29,29,29,29,29,29,29,29,29,29,29,29,29,29,29,29,29,29,
29,29,29,29,29,29,29,29,29,29,29,29,29,29,29,29,29,29,29,29,29,29,29,29,29,29,29,29,29,29
</data>
 </layer>
 <layer id="16" name="ground_layer" width="30" height="36">
  <data encoding="csv">
0,0,0,0,0,0,0,0,0,0,0,0,0,0,0,0,0,0,0,0,0,0,0,0,0,0,0,0,0,0,
0,0,0,0,0,0,0,0,0,0,0,0,0,0,0,0,0,0,0,0,0,0,0,0,0,0,0,0,0,0,
0,0,0,0,0,0,0,0,0,0,0,0,0,0,0,0,0,0,0,0,0,0,0,0,0,0,0,0,0,0,
6,6,6,6,6,6,6,6,6,6,6,6,6,6,6,6,6,6,6,6,6,6,6,6,6,6,6,6,6,6,
6,6,6,6,6,6,6,6,6,6,6,6,6,6,6,6,6,6,6,6,6,6,6,6,6,6,6,6,6,6,
6,6,6,6,6,6,6,6,6,6,6,6,6,6,6,6,6,6,6,6,6,6,6,6,6,6,6,6,6,6,
6,6,6,6,6,6,6,6,6,6,6,6,6,6,6,6,6,6,6,6,6,6,6,6,6,6,6,6,6,6,
6,6,6,6,6,6,6,6,6,6,6,6,6,6,6,6,6,6,6,6,6,6,6,6,6,6,6,6,6,6,
6,6,6,6,6,6,6,6,6,6,6,6,6,6,6,6,6,6,6,6,6,6,6,6,6,6,6,6,6,6,
6,6,6,6,6,6,6,6,6,6,6,6,6,6,6,6,6,6,6,6,6,6,6,6,6,6,6,6,6,6,
6,6,6,6,6,6,6,6,6,6,6,6,6,6,6,6,6,6,6,6,6,6,6,6,6,6,6,6,6,6,
6,6,6,6,6,6,6,6,6,6,6,6,6,6,6,6,6,6,6,6,6,6,6,6,6,6,6,6,6,6,
6,6,6,6,6,6,6,6,6,6,6,6,6,6,6,6,6,6,6,6,6,6,6,6,6,6,6,6,6,6,
6,6,6,6,6,6,6,6,6,6,6,6,6,6,6,6,6,6,6,6,6,6,6,6,6,6,6,6,6,6,
6,6,6,6,6,6,6,6,6,6,6,6,6,6,6,6,6,6,6,6,6,6,6,6,6,6,6,6,6,6,
6,6,6,6,6,6,6,6,6,6,6,6,6,6,6,6,6,6,6,6,6,6,6,6,6,6,6,6,6,6,
6,6,6,6,6,6,6,6,6,6,6,6,6,6,6,6,6,6,6,6,6,6,6,6,6,6,6,6,6,6,
6,6,6,6,6,6,6,6,6,6,6,6,6,6,6,6,6,6,6,6,6,6,6,6,6,6,6,6,6,6,
6,6,6,6,6,6,6,6,6,6,6,6,6,6,6,6,6,6,6,6,6,6,6,6,6,6,6,6,6,6,
6,6,6,6,6,6,6,6,6,6,6,6,6,6,6,6,6,6,6,6,6,6,6,6,6,6,6,6,6,6,
6,6,6,6,6,6,6,6,6,6,6,6,6,6,6,6,6,6,6,6,6,6,6,6,6,6,6,6,6,6,
6,6,6,6,6,6,6,6,6,6,6,6,6,6,6,6,6,6,6,6,6,6,6,6,6,6,6,6,6,6,
6,6,6,6,6,6,6,6,6,6,6,6,6,6,6,6,6,6,6,6,6,6,6,6,6,6,6,6,6,6,
6,6,6,6,6,6,6,6,6,6,6,6,6,6,6,6,6,6,6,6,6,6,6,6,6,6,6,6,6,6,
6,6,6,6,6,6,6,6,6,6,6,6,6,6,6,6,6,6,6,6,6,6,6,6,6,6,6,6,6,6,
6,6,6,6,6,6,6,6,6,6,6,6,6,6,6,6,6,6,6,6,6,6,6,6,6,6,6,6,6,6,
6,6,6,6,6,6,6,6,6,6,6,6,6,6,6,6,6,6,6,6,6,6,6,6,6,6,6,6,6,6,
6,6,6,6,6,6,6,6,6,6,6,6,6,6,6,6,6,6,6,6,6,6,6,6,6,6,6,6,6,6,
6,6,6,6,6,6,6,6,6,6,6,6,6,6,6,6,6,6,6,6,6,6,6,6,6,6,6,6,6,6,
6,6,6,6,6,6,6,6,6,6,6,6,6,6,6,6,6,6,6,6,6,6,6,6,6,6,6,6,6,6,
6,6,6,6,6,6,6,6,6,6,6,6,6,6,6,6,6,6,6,6,6,6,6,6,6,6,6,6,6,6,
6,6,6,6,6,6,6,6,6,6,6,6,6,6,6,6,6,6,6,6,6,6,6,6,6,6,6,6,6,6,
6,6,6,6,6,6,6,6,6,6,6,6,6,6,6,6,6,6,6,6,6,6,6,6,6,6,6,6,6,6,
0,0,0,0,0,0,0,0,0,0,0,0,0,0,0,0,0,0,0,0,0,0,0,0,6,6,6,6,6,6,
0,0,0,0,0,0,0,0,0,0,0,0,0,0,0,0,0,0,0,0,0,0,0,0,0,0,0,0,0,0,
0,0,0,0,0,0,0,0,0,0,0,0,0,0,0,0,0,0,0,0,0,0,0,0,0,0,0,0,0,0
</data>
 </layer>
 <layer id="10" name="layer1" width="30" height="36">
  <data encoding="csv">
0,0,0,0,0,0,0,0,0,0,0,0,0,0,0,0,0,0,0,0,0,0,0,0,0,0,0,0,0,0,
0,0,0,0,0,0,0,0,0,0,0,0,0,0,0,0,0,0,0,0,0,0,0,0,0,0,0,0,0,0,
0,0,0,0,0,0,0,0,0,0,0,0,0,0,0,0,0,0,0,0,0,0,0,0,0,0,0,0,0,0,
0,0,0,0,0,0,0,0,0,0,0,0,0,0,0,0,0,0,0,0,0,0,0,0,0,0,0,0,0,0,
0,0,0,0,0,0,0,0,0,0,0,0,0,0,0,0,0,0,0,0,0,0,0,0,0,0,0,0,0,0,
0,0,0,0,0,0,0,0,0,0,0,0,0,0,0,0,0,0,0,0,0,0,0,0,0,0,0,0,0,0,
0,0,0,0,0,0,0,0,0,0,0,0,0,0,0,0,0,0,0,0,0,0,0,0,0,0,0,0,0,0,
0,0,0,0,0,0,0,0,0,0,0,0,0,0,0,0,0,0,0,0,0,0,0,0,0,0,0,0,0,0,
0,0,0,0,0,0,0,0,0,0,0,0,0,0,0,0,0,0,0,0,0,0,0,0,0,0,0,0,0,0,
0,0,0,0,0,0,0,0,0,0,0,0,0,0,0,0,0,0,0,0,0,0,0,0,0,0,0,0,0,0,
0,0,0,0,0,0,0,0,0,0,0,0,0,0,0,0,0,0,0,0,0,0,0,0,0,0,0,0,0,0,
0,0,0,0,0,0,0,0,0,0,0,0,0,0,0,0,245,245,0,0,0,0,0,0,0,0,0,0,0,0,
0,0,0,0,0,0,0,0,0,0,0,0,246,245,245,245,2147483895,2147483895,246,245,0,0,0,0,0,0,0,0,0,0,
0,0,0,0,0,0,0,0,0,0,245,246,246,245,0,0,246,246,246,246,246,0,0,0,0,0,0,0,0,0,
0,0,0,0,0,0,0,0,0,245,246,246,246,0,0,0,0,246,251,246,246,246,0,0,0,0,0,0,0,0,
0,0,0,0,0,0,0,0,0,246,246,246,0,0,0,0,0,0,246,250,252,246,245,0,0,0,0,0,0,0,
0,2147483895,246,246,245,245,2147483895,2147483895,2147483895,246,246,0,0,0,0,0,0,0,0,246,246,251,246,0,0,0,0,0,0,0,
0,2147483895,246,246,245,245,245,251,245,246,245,0,0,0,0,0,0,0,0,0,250,246,246,0,0,0,0,0,0,0,
0,0,0,0,0,0,0,245,246,246,246,0,0,0,0,0,0,0,0,0,245,246,246,0,0,0,0,0,0,0,
0,0,0,0,0,0,0,0,246,246,246,245,245,0,0,0,0,0,0,0,245,246,0,0,0,0,0,0,0,0,
0,0,0,0,0,0,0,0,0,246,246,245,245,245,0,0,0,0,0,245,246,246,245,0,0,0,0,0,0,0,
0,0,0,0,0,0,0,0,0,0,245,0,245,245,245,245,245,245,245,245,246,246,245,245,0,0,0,0,0,0,
0,0,0,0,0,0,0,0,0,0,246,246,246,246,246,246,246,246,246,246,246,246,245,245,246,246,20,20,0,0,
0,0,0,0,0,0,0,0,0,0,246,246,246,246,245,245,245,246,246,246,246,246,245,245,245,246,246,20,20,0,
0,0,0,0,0,0,0,0,0,0,0,250,252,246,250,245,245,245,245,245,245,245,0,0,0,20,246,20,20,20,
0,0,0,0,0,0,0,0,0,0,0,246,246,246,250,0,0,0,0,0,0,0,0,0,0,0,20,246,20,246,
0,0,0,0,0,0,0,0,0,0,0,0,246,250,0,0,0,0,0,0,0,0,0,0,0,0,0,20,20,245,
0,0,0,0,0,0,0,0,0,0,0,0,245,0,0,0,0,0,0,0,0,0,0,0,0,0,0,20,20,0,
0,0,0,0,0,0,0,0,0,0,0,0,0,0,0,0,0,0,0,0,0,0,0,0,0,0,0,20,20,0,
0,0,0,0,0,0,0,0,0,0,0,0,0,0,0,0,0,0,0,0,0,0,0,0,0,0,0,20,20,0,
0,0,0,0,0,0,0,0,0,0,0,0,0,0,0,0,0,0,0,0,0,0,0,0,0,0,0,20,20,0,
0,0,0,0,0,0,0,0,0,0,0,0,0,0,0,0,0,0,0,0,0,0,0,0,0,0,0,0,0,0,
0,0,0,0,0,0,0,0,0,0,0,0,0,0,0,0,0,0,0,0,0,0,0,0,0,0,0,0,0,0,
0,0,0,0,0,0,0,0,0,0,0,0,0,0,0,0,0,0,0,0,245,245,0,0,0,0,0,0,0,0,
0,0,0,0,0,0,0,0,0,0,0,0,0,0,0,247,247,247,245,245,245,247,247,247,247,0,0,0,0,0,
0,0,0,0,0,0,0,0,0,0,0,0,0,0,0,247,245,16,16,247,247,247,245,247,247,247,247,247,247,247
</data>
 </layer>
 <layer id="1" name="layer2" width="30" height="36" offsetx="0" offsety="32">
  <data encoding="csv">
6,6,6,6,6,6,6,6,6,6,6,6,6,6,6,6,6,6,6,6,6,6,6,6,6,6,6,6,6,6,
6,0,0,6,0,0,0,0,0,0,0,0,0,0,0,0,0,0,0,0,0,0,0,0,0,0,0,0,6,6,
6,0,0,0,0,0,0,0,0,0,0,0,0,0,0,0,0,0,0,0,0,0,0,0,0,0,0,0,6,6,
6,6,6,6,6,6,6,6,6,6,6,6,6,6,6,6,6,6,6,6,6,6,6,6,6,6,6,6,6,6,
6,6,6,6,6,6,6,6,6,6,6,6,6,6,6,6,6,6,6,6,6,6,6,6,6,6,6,6,6,6,
6,6,6,7,6,6,6,6,6,6,6,6,6,6,6,6,6,6,6,7,6,6,6,6,6,6,6,6,6,6,
6,6,6,6,6,6,6,6,6,7,6,6,6,17,7,6,6,6,6,6,6,6,6,6,6,6,6,6,6,6,
6,6,6,6,6,6,16,6,6,6,6,6,6,6,6,6,6,6,6,6,6,6,6,6,17,6,6,6,6,6,
6,6,6,6,6,6,6,6,6,6,6,6,6,6,6,6,6,6,6,6,6,6,6,6,6,6,6,6,17,6,
6,6,6,6,6,6,6,6,6,6,6,6,6,6,6,6,6,6,6,6,6,6,6,6,6,6,6,6,17,6,
6,6,6,6,7,6,6,7,6,6,6,0,0,0,0,0,0,6,6,6,6,6,6,6,17,17,17,17,17,6,
6,16,16,6,7,6,6,6,6,6,0,0,0,0,0,0,0,0,0,16,6,6,6,17,17,6,6,6,6,6,
6,6,6,6,6,6,6,16,6,0,0,0,0,7,7,0,0,0,0,0,6,6,6,17,6,6,6,7,6,6,
6,6,6,6,6,6,6,6,0,0,0,0,7,6,6,7,0,0,0,0,0,6,6,17,6,6,6,6,7,6,
0,0,0,0,0,0,0,0,0,0,0,7,6,6,6,6,7,0,0,0,0,0,6,17,17,6,6,6,6,6,
0,0,0,0,0,0,0,0,0,0,7,6,6,6,6,6,6,7,0,0,0,221,6,6,17,6,17,6,16,6,
221,221,221,0,191,0,0,0,0,0,7,6,6,6,6,6,6,6,7,0,0,221,6,6,17,6,6,16,6,6,
6,6,16,6,6,6,0,0,0,0,7,6,6,6,6,6,6,6,7,0,0,221,6,6,6,6,6,6,6,6,
6,6,7,6,6,6,6,0,0,0,221,7,7,6,6,6,6,7,0,0,0,7,6,6,6,6,6,6,16,6,
6,6,6,6,6,6,6,221,0,0,221,0,0,7,6,6,7,0,0,0,0,7,6,6,6,6,6,16,16,6,
6,6,6,7,6,6,6,6,17,0,0,0,0,0,7,0,0,0,0,0,0,0,0,0,0,0,6,6,6,6,
6,6,6,6,6,6,6,6,17,0,0,0,0,0,0,0,0,0,0,0,0,0,0,0,0,0,0,6,6,6,
6,6,6,6,6,17,17,6,6,0,0,0,0,0,0,0,0,0,0,0,0,0,0,0,0,0,0,0,6,6,
6,6,6,6,6,6,17,17,6,0,0,0,0,0,0,0,221,0,0,7,17,6,6,6,0,0,0,0,0,0,
6,6,6,6,6,6,6,17,17,6,0,0,0,0,6,6,6,6,6,7,17,17,17,6,6,0,0,0,0,247,
6,6,16,6,16,6,6,6,17,6,0,221,221,6,6,6,6,6,7,7,6,6,17,17,6,0,0,0,0,247,
6,6,6,6,6,6,6,6,17,17,6,221,6,6,6,6,6,6,6,6,6,6,6,17,6,0,0,0,6,6,
6,6,6,6,16,6,6,6,6,17,17,6,6,6,6,6,6,6,6,6,7,6,6,17,6,6,0,221,6,6,
6,6,6,6,6,6,6,7,7,17,17,6,6,6,6,6,17,17,6,6,6,6,17,17,6,6,0,0,6,6,
6,6,6,6,6,6,6,6,17,17,6,6,7,6,6,6,6,17,17,6,6,17,17,6,6,6,0,0,6,6,
6,6,6,6,6,17,17,17,17,17,6,6,6,6,6,6,6,6,17,17,17,17,6,7,6,6,7,7,6,6,
6,6,6,6,6,6,6,6,6,6,6,6,6,6,7,6,6,6,6,6,7,6,6,6,6,6,7,7,6,6,
6,6,6,6,6,6,6,6,6,6,6,6,6,6,6,6,0,0,0,0,0,0,0,6,6,6,7,7,6,6,
6,6,6,6,6,6,6,6,6,6,6,6,6,6,6,0,0,0,0,0,0,0,0,0,0,0,0,0,0,0,
6,6,6,6,6,6,6,6,6,6,6,6,6,6,6,0,0,0,6,6,0,0,0,0,0,0,0,0,0,252,
6,6,6,6,6,6,6,6,6,6,6,6,6,6,6,16,16,16,6,6,6,6,6,6,6,6,6,6,6,6
</data>
 </layer>
 <layer id="13" name="layer3" width="30" height="36">
  <data encoding="csv">
23,23,23,23,23,23,23,23,23,23,23,23,23,23,23,23,23,23,23,23,23,23,23,23,23,23,23,23,23,23,
23,23,23,23,23,23,23,23,23,23,23,0,23,23,23,23,23,23,23,23,23,0,0,0,0,0,0,0,23,23,
23,23,0,0,0,0,0,0,0,0,0,0,0,0,23,23,23,0,0,0,23,23,23,23,23,23,23,23,23,23,
23,23,23,23,23,23,23,23,23,23,23,23,23,23,23,23,23,23,23,23,23,23,23,23,23,23,23,23,23,23,
23,23,0,0,0,28,0,29,31,0,31,0,0,0,0,0,0,23,0,23,23,0,0,0,0,32,0,23,23,23,
23,0,0,0,0,0,0,29,29,31,0,0,0,0,27,0,0,23,23,23,23,31,0,0,0,0,0,0,23,23,
23,0,0,0,0,0,0,0,29,0,0,0,0,0,0,0,0,23,23,23,0,0,0,0,0,0,32,32,0,23,
23,0,0,0,0,0,0,0,29,29,0,36,0,2147483682,0,0,0,0,23,23,31,0,0,0,0,0,0,0,0,23,
23,0,0,0,0,0,0,0,0,29,0,0,0,0,0,0,0,0,23,0,32,29,23,36,26,0,0,0,22,0,
23,0,0,0,0,0,0,0,0,29,29,0,0,0,0,0,0,0,0,0,0,0,30,0,0,0,0,0,0,0,
23,40,0,0,0,0,0,0,0,0,23,0,0,237,237,0,0,0,0,0,0,0,0,0,0,0,0,0,0,0,
23,35,0,0,0,0,0,0,0,0,0,0,0,237,237,0,0,0,0,0,0,0,0,0,0,0,0,0,0,0,
23,0,0,0,0,0,0,0,0,0,0,0,0,0,0,0,0,0,0,0,0,0,0,0,0,0,0,0,0,0,
23,0,0,0,0,0,0,0,0,0,0,0,0,0,0,0,0,0,0,0,0,0,0,0,0,0,0,0,0,0,
0,0,0,237,237,0,0,0,0,0,0,0,0,0,0,0,0,0,0,0,0,0,0,0,0,0,0,0,0,0,
0,0,0,237,237,0,0,0,0,0,0,0,0,0,0,0,0,0,0,0,0,0,0,0,0,0,0,0,35,35,
0,0,0,237,237,0,0,0,0,0,0,0,0,0,0,0,0,0,0,0,0,0,0,0,0,0,0,77,0,0,
0,23,0,0,0,0,0,0,0,0,0,0,0,0,0,0,0,0,0,0,0,0,0,0,0,0,0,0,0,0,
23,23,0,0,0,0,0,0,0,0,0,0,0,0,0,0,0,0,0,0,0,0,0,0,0,0,0,0,39,0,
23,0,0,36,0,0,0,0,0,0,0,237,237,0,0,0,0,0,0,0,0,0,0,0,0,0,0,0,0,0,
23,0,0,0,0,0,0,0,0,237,237,237,237,0,0,0,0,0,0,0,0,0,237,237,0,0,0,0,0,0,
23,0,0,0,0,0,0,0,0,237,237,237,237,0,0,0,0,0,0,0,0,0,237,237,0,0,0,0,0,0,
23,0,0,0,0,0,0,0,0,0,0,0,0,0,0,0,0,0,0,0,0,0,237,237,0,0,0,0,0,0,
23,0,0,0,0,0,0,0,0,0,0,0,0,0,0,0,0,0,0,0,0,0,0,0,0,0,0,0,0,0,
23,0,2147483673,0,0,0,0,0,0,0,0,0,0,0,0,0,0,0,0,0,21,0,0,0,0,0,0,0,0,0,
23,0,0,0,0,0,0,0,0,0,0,0,0,0,0,0,0,0,0,0,0,0,0,0,0,0,0,0,0,0,
23,0,0,0,0,0,0,0,0,0,0,0,0,0,0,0,0,0,0,0,0,0,0,0,0,0,0,0,23,23,
23,0,0,0,0,0,0,0,0,0,0,0,0,0,0,0,0,0,0,0,0,0,0,0,0,0,0,0,23,23,
23,0,0,0,0,0,0,0,0,0,0,0,0,0,0,0,24,0,0,0,0,0,0,0,0,0,0,0,23,23,
23,0,0,0,0,0,0,0,0,0,0,0,0,0,0,0,0,0,0,0,0,0,0,0,0,30,0,0,23,23,
23,0,0,0,0,0,0,0,0,0,0,0,0,0,0,0,0,0,0,0,0,0,0,0,0,0,2147483681,2147483681,0,0,
23,0,0,0,0,0,0,0,0,0,0,0,0,0,0,0,0,0,0,0,0,0,0,0,0,0,0,0,0,0,
23,23,0,2147483686,0,36,0,0,0,0,0,0,0,0,0,29,0,0,0,0,0,0,0,0,0,0,0,0,0,0,
23,23,23,0,0,0,0,0,0,0,0,0,0,0,29,0,0,0,0,0,0,0,0,0,0,0,0,0,0,0,
23,23,23,23,23,23,0,0,0,0,0,0,0,0,29,0,0,0,0,0,0,0,0,0,0,0,0,0,0,0,
23,23,23,23,23,23,23,23,23,23,23,23,23,23,23,29,29,0,0,0,0,0,0,0,0,0,0,0,0,0
</data>
 </layer>
 <objectgroup id="5" name="object">
  <object id="36" x="64" y="1280" width="32" height="32" visible="0">
   <properties>
    <property name="enemy" value="enemy_02"/>
    <property name="event" value="battle"/>
    <property name="health" value="2"/>
   </properties>
  </object>
  <object id="37" x="192" y="1376"/>
  <object id="38" x="64" y="1280"/>
  <object id="63" x="160" y="960" width="32" height="32">
   <properties>
    <property name="event" value="tele"/>
    <property name="id" value="main_2"/>
    <property name="map" value="library"/>
   </properties>
  </object>
  <object id="66" x="128" y="704" width="32" height="32">
   <properties>
    <property name="event" value="tele"/>
    <property name="id" value="main_3"/>
    <property name="map" value="tavern"/>
   </properties>
  </object>
  <object id="69" x="416" y="256" width="32" height="32">
   <properties>
    <property name="event" value="tele"/>
    <property name="id" value="main_5"/>
    <property name="map" value="tower"/>
   </properties>
  </object>
  <object id="70" x="768" y="288" width="32" height="32">
   <properties>
    <property name="event" value="tele"/>
    <property name="id" value="main_7"/>
    <property name="map" value="unknown"/>
   </properties>
  </object>
  <object id="71" x="896" y="288" width="32" height="32">
   <properties>
    <property name="amount" type="int" value="2"/>
    <property name="event" value="treasure"/>
    <property name="id" value="main_8"/>
    <property name="item" value="4"/>
    <property name="one_time" type="bool" value="true"/>
   </properties>
  </object>
  <object id="72" x="512" y="896" width="32" height="32">
   <properties>
    <property name="event" value="rest"/>
    <property name="id" value="main_9"/>
   </properties>
  </object>
  <object id="73" x="352" y="1120"/>
  <object id="76" x="160" y="128" width="32" height="32">
   <properties>
    <property name="amount" type="int" value="1"/>
    <property name="event" value="treasure"/>
    <property name="id" value="main_4"/>
    <property name="item" value="18"/>
    <property name="one_time" type="bool" value="true"/>
   </properties>
  </object>
 </objectgroup>
</map>
