<?xml version="1.0" encoding="UTF-8"?>
<map version="1.10" tiledversion="1.11.2" orientation="isometric" renderorder="right-down" width="20" height="20" tilewidth="63" tileheight="32" infinite="0" nextlayerid="9" nextobjectid="117">
 <tileset firstgid="1" name="tile3" tilewidth="64" tileheight="32" tilecount="1" columns="1">
  <image source="tiles/tile3.png" trans="ff00ff" width="64" height="32"/>
 </tileset>
 <tileset firstgid="2" name="dirt_W" tilewidth="64" tileheight="32" tilecount="1" columns="1">
  <image source="tiles/dirt_W.png" trans="ff00ff" width="64" height="32"/>
 </tileset>
 <tileset firstgid="3" name="water" tilewidth="64" tileheight="32" tilecount="1" columns="1">
  <image source="tiles/water.png" trans="ff00ff" width="64" height="32"/>
 </tileset>
 <tileset firstgid="4" name="tire1" tilewidth="64" tileheight="32" tilecount="1" columns="1">
  <image source="tiles/city_game_tileset/city_game_tileset/tire1.png" trans="ff00ff" width="64" height="32"/>
  <tile id="0">
   <properties>
    <property name="walkable" type="bool" value="false"/>
   </properties>
  </tile>
 </tileset>
 <tileset firstgid="5" name="tree1" tilewidth="64" tileheight="128" tilecount="1" columns="1">
  <image source="tiles/city_game_tileset/city_game_tileset/tree1.png" trans="ff00ff" width="64" height="128"/>
 </tileset>
 <layer id="1" name="ground_layer" width="20" height="20">
  <data encoding="csv">
0,1,0,0,0,0,0,0,0,0,0,0,0,0,0,0,0,0,0,0,
1,1,1,0,0,0,0,0,0,0,0,0,0,0,0,0,0,0,0,0,
1,1,1,0,0,1,1,0,0,0,0,0,0,0,0,0,0,0,0,0,
1,1,1,1,0,1,1,0,0,0,0,0,0,0,0,0,0,0,0,0,
1,1,1,1,0,1,0,1,1,1,1,0,0,0,0,0,0,0,0,0,
1,1,1,1,1,1,0,1,1,1,1,1,1,2,2,2,0,0,0,0,
1,1,1,1,2,1,1,1,1,1,1,1,1,2,2,2,0,0,0,0,
1,1,1,1,1,1,1,1,1,1,1,1,1,2,2,2,0,0,0,0,
1,1,1,1,1,1,2,1,1,1,1,1,1,1,1,1,0,0,0,0,
1,1,1,1,1,1,1,1,1,1,1,1,1,2,1,1,1,0,0,0,
1,1,1,1,2,1,1,1,1,1,1,1,1,1,1,1,1,0,0,0,
1,1,1,1,1,1,1,1,1,1,1,1,1,1,1,2,1,1,0,0,
1,1,1,1,1,1,1,1,1,1,1,1,1,1,1,1,2,1,0,0,
1,1,1,1,1,1,2,1,1,1,1,1,1,1,1,1,1,1,0,0,
1,1,1,1,1,1,1,1,1,1,1,1,1,1,1,1,1,0,0,0,
1,1,1,1,1,1,1,1,1,1,1,1,1,1,1,1,0,0,0,0,
1,1,1,1,1,1,1,1,1,1,1,1,1,1,1,1,0,0,0,0,
1,1,1,1,1,1,1,1,1,1,1,1,1,1,1,1,0,0,0,0,
1,1,1,1,1,1,1,1,1,1,1,1,1,1,1,1,0,0,0,0,
1,1,1,1,1,1,1,1,1,1,1,1,1,1,1,0,0,0,0,0
</data>
 </layer>
 <layer id="3" name="terrain_layer" width="20" height="20">
  <data encoding="csv">
0,0,0,0,0,0,0,0,0,0,0,0,0,0,0,0,0,0,0,0,
0,0,0,0,0,0,0,0,0,0,0,0,0,0,0,0,0,0,0,0,
0,0,0,0,0,0,0,0,0,0,0,0,0,0,0,0,0,0,0,0,
0,0,0,0,0,0,0,0,0,0,0,0,0,0,0,0,0,0,0,0,
0,0,0,0,0,0,0,0,0,0,0,0,0,0,0,0,0,0,0,0,
0,0,0,0,0,0,0,0,0,0,0,0,0,0,0,0,0,0,0,0,
0,0,0,0,0,0,0,0,0,0,0,0,0,0,0,0,0,0,0,0,
0,0,0,0,0,0,0,0,0,0,0,0,0,0,0,0,0,0,0,0,
0,0,0,0,0,0,0,0,0,0,0,0,0,0,0,0,0,0,0,0,
0,0,0,0,0,0,0,0,0,0,0,0,0,0,0,0,0,0,0,0,
0,0,0,0,0,0,0,0,0,0,0,0,0,0,0,0,0,0,0,0,
0,0,0,0,0,0,0,0,0,0,0,0,0,0,0,0,0,0,0,0,
0,0,0,0,0,0,0,0,0,0,0,0,0,0,0,0,0,0,0,0,
0,0,0,0,0,0,0,0,0,0,0,0,0,0,0,0,0,0,0,0,
0,0,0,0,0,0,0,0,0,0,0,0,0,0,0,0,0,0,0,0,
0,0,0,0,0,0,0,0,0,0,0,0,0,0,0,0,0,0,0,0,
0,0,0,0,0,0,0,0,0,0,0,0,0,0,0,0,0,0,0,0,
0,0,0,0,0,0,0,0,0,0,0,0,0,0,0,0,0,0,0,0,
0,4,0,0,0,0,0,0,0,0,0,0,0,0,0,0,0,0,0,0,
0,0,0,0,0,0,0,0,0,0,0,0,0,0,0,0,0,0,0,0
</data>
 </layer>
 <objectgroup id="4" name="object">
  <object id="114" gid="5" x="576" y="448" width="64" height="128"/>
  <object id="115" gid="5" x="224" y="448" width="64" height="128"/>
  <object id="116" gid="5" x="160" y="224" width="64" height="128"/>
 </objectgroup>
 <objectgroup id="7" name="overlay"/>
</map>
